;FLAVOR:UltiGCode
;TIME:2193
;MATERIAL:4524
;MATERIAL2:0
;NOZZLE_DIAMETER:0.000000
;NOZZLE_DIAMETER2:0.000000

;Layer count: 167
;LAYER:0
M107
G0 F9000 X95.807 Y114.676 Z0.300
;TYPE:SKIRT
G1 F1800 X127.193 Y114.676 E4.70790
G1 X127.193 Y133.792 E7.57530
G1 X95.807 Y133.792 E12.28320
G1 X95.807 Y114.676 E15.15060
G0 F9000 X96.307 Y115.176
G1 F1800 X126.693 Y115.176 E19.70850
G1 X126.693 Y133.292 E22.42590
G1 X96.307 Y133.292 E26.98380
G1 X96.307 Y115.176 E29.70120
G10
G0 F9000 X100.307 Y119.176
;TYPE:WALL-INNER
G11
G1 F1800 X100.432 Y119.176 E29.71995
G1 X100.432 Y129.292 E31.23735
G1 X100.307 Y129.292 E31.25610
G1 X100.307 Y119.176 E32.77350
G0 F9000 X122.568 Y119.176
G1 F1800 X122.693 Y119.176 E32.79225
G1 X122.693 Y129.292 E34.30965
G1 X122.568 Y129.292 E34.32840
G1 X122.568 Y119.176 E35.84580
G0 F9000 X122.068 Y119.553
;TYPE:WALL-OUTER
G1 F1800 X100.932 Y119.553 E39.01620
G1 X100.932 Y128.915 E40.42050
G1 X122.068 Y128.915 E43.59090
G1 X122.068 Y119.553 E44.99520
G0 F9000 X123.193 Y118.676
G1 F1800 X123.193 Y129.792 E46.66260
G1 X99.807 Y129.792 E50.17050
G1 X99.807 Y118.676 E51.83790
G1 X123.193 Y118.676 E55.34580
G0 F9000 X122.342 Y119.160
;TYPE:SKIN
G1 F1800 X121.942 Y119.113 E55.39558
G1 X121.235 Y119.113 E55.47533
G1 X120.528 Y119.113 E55.55508
G1 X119.820 Y119.113 E55.63494
G1 X119.113 Y119.113 E55.71469
G1 X118.406 Y119.113 E55.79444
G1 X117.699 Y119.113 E55.87419
G1 X116.992 Y119.113 E55.95394
G1 X116.285 Y119.113 E56.03369
G1 X115.578 Y119.113 E56.11344
G1 X114.871 Y119.113 E56.19319
G1 X114.164 Y119.113 E56.27294
G1 X113.456 Y119.113 E56.35280
G1 X112.749 Y119.113 E56.43255
G1 X112.042 Y119.113 E56.51230
G1 X111.335 Y119.113 E56.59205
G1 X110.628 Y119.113 E56.67180
G1 X109.921 Y119.113 E56.75155
G1 X109.214 Y119.113 E56.83130
G1 X108.507 Y119.113 E56.91105
G1 X107.800 Y119.113 E56.99080
G1 X107.092 Y119.113 E57.07066
G1 X106.385 Y119.113 E57.15041
G1 X105.678 Y119.113 E57.23016
G1 X104.971 Y119.113 E57.30991
G1 X104.264 Y119.113 E57.38966
G1 X103.557 Y119.113 E57.46941
G1 X102.850 Y119.113 E57.54916
G1 X102.143 Y119.113 E57.62891
G1 X101.436 Y119.113 E57.70866
G1 X100.894 Y118.925 E57.79471
G0 F9000 X100.894 Y119.026
G0 X122.459 Y119.162
G0 X122.459 Y129.306
G0 X101.233 Y129.265
G0 X101.233 Y129.164
G1 F1800 X101.775 Y129.352 E57.87474
G1 X102.482 Y129.352 E57.95449
G1 X103.189 Y129.352 E58.03424
G1 X103.896 Y129.352 E58.11399
G1 X104.603 Y129.352 E58.19374
G1 X105.311 Y129.352 E58.27360
G1 X106.018 Y129.352 E58.35335
G1 X106.725 Y129.352 E58.43310
G1 X107.432 Y129.352 E58.51285
G1 X108.139 Y129.352 E58.59260
G1 X108.846 Y129.352 E58.67235
G1 X109.553 Y129.352 E58.75210
G1 X110.260 Y129.352 E58.83185
G1 X110.967 Y129.352 E58.91159
G1 X111.675 Y129.352 E58.99146
G1 X112.382 Y129.352 E59.07121
G1 X113.089 Y129.352 E59.15096
G1 X113.796 Y129.352 E59.23071
G1 X114.503 Y129.352 E59.31046
G1 X115.210 Y129.352 E59.39021
G1 X115.917 Y129.352 E59.46995
G1 X116.624 Y129.352 E59.54970
G1 X117.331 Y129.352 E59.62945
G1 X118.038 Y129.352 E59.70920
G1 X118.746 Y129.352 E59.78907
G1 X119.453 Y129.352 E59.86882
G1 X119.995 Y129.541 E59.95492
G0 F9000 X100.903 Y129.541
G1 F1800 X100.656 Y129.294 E60.00731
G0 F9000 X120.325 Y129.265
G0 X120.325 Y129.164
G1 F1800 X120.867 Y129.352 E60.08734
G1 X121.574 Y129.352 E60.16709
G1 X122.116 Y129.541 E60.25319
;LAYER:1
M106 S127
G0 F9000 X122.568 Y129.292 Z0.450
;TYPE:WALL-INNER
G1 F2520 X122.568 Y119.176 E61.01189
G1 X122.693 Y119.176 E61.02127
G1 X122.693 Y129.292 E61.77997
G1 X122.568 Y129.292 E61.78934
G0 F9000 X100.432 Y129.292
G1 F2520 X100.307 Y129.292 E61.79872
G1 X100.307 Y119.176 E62.55742
G1 X100.432 Y119.176 E62.56679
G1 X100.432 Y129.292 E63.32549
G0 F9000 X100.932 Y128.915
;TYPE:WALL-OUTER
G1 F1920 X122.068 Y128.915 E64.91069
G1 X122.068 Y119.553 E65.61284
G1 X100.932 Y119.553 E67.19804
G1 X100.932 Y128.915 E67.90019
G0 F9000 X99.807 Y129.792
G1 F1920 X99.807 Y118.676 E68.73389
G1 X123.193 Y118.676 E70.48784
G1 X123.193 Y129.792 E71.32154
G1 X99.807 Y129.792 E73.07549
G0 F9000 X100.657 Y129.505
;TYPE:SKIN
G1 F1740 X101.163 Y129.352 E73.11165
G1 X101.870 Y129.352 E73.15153
G1 X102.578 Y129.352 E73.19146
G1 X103.285 Y129.352 E73.23133
G1 X103.992 Y129.352 E73.27121
G1 X104.699 Y129.352 E73.31108
G1 X105.406 Y129.352 E73.35096
G1 X106.113 Y129.352 E73.39083
G1 X106.820 Y129.352 E73.43071
G1 X107.527 Y129.352 E73.47058
G1 X108.234 Y129.352 E73.51045
G1 X108.942 Y129.352 E73.55039
G1 X109.649 Y129.352 E73.59026
G1 X110.356 Y129.352 E73.63014
G1 X111.063 Y129.352 E73.67001
G1 X111.770 Y129.352 E73.70989
G1 X112.477 Y129.352 E73.74976
G1 X113.184 Y129.352 E73.78963
G1 X113.891 Y129.352 E73.82951
G1 X114.598 Y129.352 E73.86938
G1 X115.306 Y129.352 E73.90932
G1 X116.013 Y129.352 E73.94919
G1 X116.720 Y129.352 E73.98907
G1 X117.427 Y129.352 E74.02894
G1 X118.134 Y129.352 E74.06881
G1 X118.841 Y129.352 E74.10869
G1 X119.548 Y129.352 E74.14856
G1 X120.255 Y129.352 E74.18844
G1 X120.962 Y129.352 E74.22831
G1 X121.669 Y129.352 E74.26819
G1 X122.212 Y129.164 E74.31129
G0 F9000 X122.212 Y129.265
G0 X100.541 Y129.306
G0 X100.541 Y119.162
G0 X122.172 Y119.102
G0 X122.173 Y119.303
G1 F1740 X122.093 Y119.029 E74.32923
G1 X121.301 Y119.114 E74.36925
G1 X120.594 Y119.114 E74.40923
G1 X119.887 Y119.114 E74.44921
G1 X119.180 Y119.114 E74.48919
G1 X118.473 Y119.114 E74.52907
G1 X117.766 Y119.114 E74.56894
G1 X117.059 Y119.114 E74.60882
G1 X116.352 Y119.114 E74.64869
G1 X115.644 Y119.114 E74.68873
G1 X114.937 Y119.114 E74.72871
G1 X114.230 Y119.114 E74.76869
G1 X113.523 Y119.114 E74.80867
G1 X112.816 Y119.114 E74.84865
G1 X112.109 Y119.114 E74.88864
G1 X111.402 Y119.114 E74.92851
G1 X110.695 Y119.114 E74.96838
G1 X109.988 Y119.114 E75.00826
G1 X109.280 Y119.114 E75.04830
G1 X108.573 Y119.114 E75.08828
G1 X107.866 Y119.114 E75.12826
G1 X107.159 Y119.114 E75.16824
G1 X106.452 Y119.114 E75.20822
G1 X105.745 Y119.114 E75.24820
G1 X105.038 Y119.114 E75.28808
G1 X104.331 Y119.114 E75.32795
G1 X103.624 Y119.114 E75.36783
G1 X102.917 Y119.114 E75.40770
G1 X102.209 Y119.114 E75.44774
G1 X101.502 Y119.114 E75.48772
G1 X100.960 Y119.303 E75.53077
;LAYER:2
M106 S255
G0 F9000 X100.432 Y119.176 Z0.600
;TYPE:WALL-INNER
G1 F3300 X100.432 Y129.292 E76.28947
G1 X100.307 Y129.292 E76.29884
G1 X100.307 Y119.176 E77.05754
G1 X100.432 Y119.176 E77.06692
G0 F9000 X122.568 Y119.176
G1 F3300 X122.693 Y119.176 E77.07629
G1 X122.693 Y129.292 E77.83499
G1 X122.568 Y129.292 E77.84437
G1 X122.568 Y119.176 E78.60307
G0 F9000 X122.068 Y119.553
;TYPE:WALL-OUTER
G1 F2100 X100.932 Y119.553 E80.18827
G1 X100.932 Y128.915 E80.89042
G1 X122.068 Y128.915 E82.47562
G1 X122.068 Y119.553 E83.17777
G0 F9000 X123.193 Y118.676
G1 F2100 X123.193 Y129.792 E84.01147
G1 X99.807 Y129.792 E85.76542
G1 X99.807 Y118.676 E86.59912
G1 X123.193 Y118.676 E88.35307
G0 F9000 X122.342 Y119.160
;TYPE:SKIN
G1 F1800 X121.942 Y119.113 E88.37796
G1 X121.235 Y119.113 E88.41783
G1 X120.528 Y119.113 E88.45771
G1 X119.820 Y119.113 E88.49764
G1 X119.113 Y119.113 E88.53752
G1 X118.406 Y119.113 E88.57739
G1 X117.699 Y119.113 E88.61726
G1 X116.992 Y119.113 E88.65714
G1 X116.285 Y119.113 E88.69701
G1 X115.578 Y119.113 E88.73689
G1 X114.871 Y119.113 E88.77676
G1 X114.164 Y119.113 E88.81664
G1 X113.456 Y119.113 E88.85657
G1 X112.749 Y119.113 E88.89644
G1 X112.042 Y119.113 E88.93632
G1 X111.335 Y119.113 E88.97619
G1 X110.628 Y119.113 E89.01607
G1 X109.921 Y119.113 E89.05594
G1 X109.214 Y119.113 E89.09582
G1 X108.507 Y119.113 E89.13569
G1 X107.800 Y119.113 E89.17557
G1 X107.092 Y119.113 E89.21550
G1 X106.385 Y119.113 E89.25537
G1 X105.678 Y119.113 E89.29525
G1 X104.971 Y119.113 E89.33512
G1 X104.264 Y119.113 E89.37500
G1 X103.557 Y119.113 E89.41487
G1 X102.850 Y119.113 E89.45475
G1 X102.143 Y119.113 E89.49462
G1 X101.436 Y119.113 E89.53450
G1 X100.894 Y118.925 E89.57752
G0 F9000 X100.894 Y119.026
G0 X122.459 Y119.162
G0 X122.459 Y129.306
G0 X101.233 Y129.265
G0 X101.233 Y129.164
G1 F1800 X101.775 Y129.352 E89.61754
G1 X102.482 Y129.352 E89.65741
G1 X103.189 Y129.352 E89.69729
G1 X103.896 Y129.352 E89.73716
G1 X104.603 Y129.352 E89.77704
G1 X105.311 Y129.352 E89.81697
G1 X106.018 Y129.352 E89.85684
G1 X106.725 Y129.352 E89.89672
G1 X107.432 Y129.352 E89.93659
G1 X108.139 Y129.352 E89.97647
G1 X108.846 Y129.352 E90.01634
G1 X109.553 Y129.352 E90.05622
G1 X110.260 Y129.352 E90.09609
G1 X110.967 Y129.352 E90.13597
G1 X111.675 Y129.352 E90.17590
G1 X112.382 Y129.352 E90.21577
G1 X113.089 Y129.352 E90.25565
G1 X113.796 Y129.352 E90.29552
G1 X114.503 Y129.352 E90.33540
G1 X115.210 Y129.352 E90.37527
G1 X115.917 Y129.352 E90.41515
G1 X116.624 Y129.352 E90.45502
G1 X117.331 Y129.352 E90.49490
G1 X118.038 Y129.352 E90.53477
G1 X118.746 Y129.352 E90.57470
G1 X119.453 Y129.352 E90.61458
G1 X119.995 Y129.541 E90.65763
G0 F9000 X100.903 Y129.541
G1 F1800 X100.656 Y129.294 E90.68383
G0 F9000 X120.325 Y129.265
G0 X120.325 Y129.164
G1 F1800 X120.867 Y129.352 E90.72384
G1 X121.574 Y129.352 E90.76372
G1 X122.116 Y129.541 E90.80677
;LAYER:3
G0 F9000 X122.568 Y129.292 Z0.750
;TYPE:WALL-INNER
G1 F4020 X122.568 Y119.176 E91.56547
G1 X122.693 Y119.176 E91.57484
G1 X122.693 Y129.292 E92.33354
G1 X122.568 Y129.292 E92.34292
G0 F9000 X100.432 Y129.292
G1 F4020 X100.307 Y129.292 E92.35229
G1 X100.307 Y119.176 E93.11099
G1 X100.432 Y119.176 E93.12037
G1 X100.432 Y129.292 E93.87907
G0 F9000 X100.932 Y128.915
;TYPE:WALL-OUTER
G1 F2220 X122.068 Y128.915 E95.46427
G1 X122.068 Y119.553 E96.16642
G1 X100.932 Y119.553 E97.75162
G1 X100.932 Y128.915 E98.45377
G0 F9000 X99.807 Y129.792
G1 F2220 X99.807 Y118.676 E99.28747
G1 X123.193 Y118.676 E101.04142
G1 X123.193 Y129.792 E101.87512
G1 X99.807 Y129.792 E103.62907
G0 F9000 X100.657 Y129.505
;TYPE:SKIN
G1 F1740 X101.163 Y129.352 E103.66522
G1 X101.870 Y129.352 E103.70510
G1 X102.578 Y129.352 E103.74503
G1 X103.285 Y129.352 E103.78490
G1 X103.992 Y129.352 E103.82478
G1 X104.699 Y129.352 E103.86465
G1 X105.406 Y129.352 E103.90453
G1 X106.113 Y129.352 E103.94440
G1 X106.820 Y129.352 E103.98428
G1 X107.527 Y129.352 E104.02415
G1 X108.234 Y129.352 E104.06403
G1 X108.942 Y129.352 E104.10396
G1 X109.649 Y129.352 E104.14383
G1 X110.356 Y129.352 E104.18371
G1 X111.063 Y129.352 E104.22358
G1 X111.770 Y129.352 E104.26346
G1 X112.477 Y129.352 E104.30333
G1 X113.184 Y129.352 E104.34321
G1 X113.891 Y129.352 E104.38308
G1 X114.598 Y129.352 E104.42296
G1 X115.306 Y129.352 E104.46289
G1 X116.013 Y129.352 E104.50276
G1 X116.720 Y129.352 E104.54264
G1 X117.427 Y129.352 E104.58251
G1 X118.134 Y129.352 E104.62239
G1 X118.841 Y129.352 E104.66226
G1 X119.548 Y129.352 E104.70214
G1 X120.255 Y129.352 E104.74201
G1 X120.962 Y129.352 E104.78189
G1 X121.669 Y129.352 E104.82176
G1 X122.212 Y129.164 E104.86486
G0 F9000 X122.212 Y129.265
G0 X100.541 Y129.306
G0 X100.541 Y119.162
G0 X122.172 Y119.102
G0 X122.173 Y119.303
G1 F1740 X122.093 Y119.029 E104.88280
G1 X121.301 Y119.114 E104.92283
G1 X120.594 Y119.114 E104.96281
G1 X119.887 Y119.114 E105.00279
G1 X119.180 Y119.114 E105.04277
G1 X118.473 Y119.114 E105.08264
G1 X117.766 Y119.114 E105.12252
G1 X117.059 Y119.114 E105.16239
G1 X116.352 Y119.114 E105.20227
G1 X115.644 Y119.114 E105.24230
G1 X114.937 Y119.114 E105.28229
G1 X114.230 Y119.114 E105.32227
G1 X113.523 Y119.114 E105.36225
G1 X112.816 Y119.114 E105.40223
G1 X112.109 Y119.114 E105.44221
G1 X111.402 Y119.114 E105.48208
G1 X110.695 Y119.114 E105.52196
G1 X109.988 Y119.114 E105.56183
G1 X109.280 Y119.114 E105.60187
G1 X108.573 Y119.114 E105.64185
G1 X107.866 Y119.114 E105.68183
G1 X107.159 Y119.114 E105.72181
G1 X106.452 Y119.114 E105.76179
G1 X105.745 Y119.114 E105.80177
G1 X105.038 Y119.114 E105.84165
G1 X104.331 Y119.114 E105.88152
G1 X103.624 Y119.114 E105.92140
G1 X102.917 Y119.114 E105.96127
G1 X102.209 Y119.114 E106.00131
G1 X101.502 Y119.114 E106.04129
G1 X100.960 Y119.303 E106.08434
;LAYER:4
G0 F9000 X100.432 Y119.176 Z0.900
;TYPE:WALL-INNER
G1 F4800 X100.432 Y129.292 E106.84304
G1 X100.307 Y129.292 E106.85242
G1 X100.307 Y119.176 E107.61112
G1 X100.432 Y119.176 E107.62049
G0 F9000 X122.568 Y119.176
G1 F4800 X122.693 Y119.176 E107.62987
G1 X122.693 Y129.292 E108.38857
G1 X122.568 Y129.292 E108.39794
G1 X122.568 Y119.176 E109.15664
G0 F9000 X122.068 Y119.553
;TYPE:WALL-OUTER
G1 F2400 X100.932 Y119.553 E110.74184
G1 X100.932 Y128.915 E111.44399
G1 X122.068 Y128.915 E113.02919
G1 X122.068 Y119.553 E113.73134
G0 F9000 X123.193 Y118.676
G1 F2400 X123.193 Y129.792 E114.56504
G1 X99.807 Y129.792 E116.31899
G1 X99.807 Y118.676 E117.15269
G1 X123.193 Y118.676 E118.90664
G0 F9000 X122.342 Y119.160
;TYPE:SKIN
G1 F1800 X121.942 Y119.113 E118.93153
G1 X121.235 Y119.113 E118.97141
G1 X120.528 Y119.113 E119.01128
G1 X119.820 Y119.113 E119.05121
G1 X119.113 Y119.113 E119.09109
G1 X118.406 Y119.113 E119.13096
G1 X117.699 Y119.113 E119.17084
G1 X116.992 Y119.113 E119.21071
G1 X116.285 Y119.113 E119.25059
G1 X115.578 Y119.113 E119.29046
G1 X114.871 Y119.113 E119.33034
G1 X114.164 Y119.113 E119.37021
G1 X113.456 Y119.113 E119.41014
G1 X112.749 Y119.113 E119.45002
G1 X112.042 Y119.113 E119.48989
G1 X111.335 Y119.113 E119.52977
G1 X110.628 Y119.113 E119.56964
G1 X109.921 Y119.113 E119.60952
G1 X109.214 Y119.113 E119.64939
G1 X108.507 Y119.113 E119.68927
G1 X107.800 Y119.113 E119.72914
G1 X107.092 Y119.113 E119.76907
G1 X106.385 Y119.113 E119.80895
G1 X105.678 Y119.113 E119.84882
G1 X104.971 Y119.113 E119.88870
G1 X104.264 Y119.113 E119.92857
G1 X103.557 Y119.113 E119.96845
G1 X102.850 Y119.113 E120.00832
G1 X102.143 Y119.113 E120.04820
G1 X101.436 Y119.113 E120.08807
G1 X100.894 Y118.925 E120.13110
G0 F9000 X100.894 Y119.026
G0 X122.459 Y119.162
G0 X122.459 Y129.306
G0 X101.233 Y129.265
G0 X101.233 Y129.164
G1 F1800 X101.775 Y129.352 E120.17111
G1 X102.482 Y129.352 E120.21099
G1 X103.189 Y129.352 E120.25086
G1 X103.896 Y129.352 E120.29074
G1 X104.603 Y129.352 E120.33061
G1 X105.311 Y129.352 E120.37054
G1 X106.018 Y129.352 E120.41042
G1 X106.725 Y129.352 E120.45029
G1 X107.432 Y129.352 E120.49017
G1 X108.139 Y129.352 E120.53004
G1 X108.846 Y129.352 E120.56992
G1 X109.553 Y129.352 E120.60979
G1 X110.260 Y129.352 E120.64967
G1 X110.967 Y129.352 E120.68954
G1 X111.675 Y129.352 E120.72947
G1 X112.382 Y129.352 E120.76935
G1 X113.089 Y129.352 E120.80922
G1 X113.796 Y129.352 E120.84910
G1 X114.503 Y129.352 E120.88897
G1 X115.210 Y129.352 E120.92885
G1 X115.917 Y129.352 E120.96872
G1 X116.624 Y129.352 E121.00859
G1 X117.331 Y129.352 E121.04847
G1 X118.038 Y129.352 E121.08834
G1 X118.746 Y129.352 E121.12828
G1 X119.453 Y129.352 E121.16815
G1 X119.995 Y129.541 E121.21120
G0 F9000 X100.903 Y129.541
G1 F1800 X100.656 Y129.294 E121.23740
G0 F9000 X120.325 Y129.265
G0 X120.325 Y129.164
G1 F1800 X120.867 Y129.352 E121.27741
G1 X121.574 Y129.352 E121.31729
G1 X122.116 Y129.541 E121.36034
;LAYER:5
G0 F9000 X122.568 Y129.292 Z1.050
;TYPE:WALL-INNER
G1 F4800 X122.568 Y119.176 E122.11904
G1 X122.693 Y119.176 E122.12841
G1 X122.693 Y129.292 E122.88711
G1 X122.568 Y129.292 E122.89649
G0 F9000 X100.432 Y129.292
G1 F4800 X100.307 Y129.292 E122.90586
G1 X100.307 Y119.176 E123.66456
G1 X100.432 Y119.176 E123.67394
G1 X100.432 Y129.292 E124.43264
G0 F9000 X100.932 Y128.915
;TYPE:WALL-OUTER
G1 F2400 X122.068 Y128.915 E126.01784
G1 X122.068 Y119.553 E126.71999
G1 X100.932 Y119.553 E128.30519
G1 X100.932 Y128.915 E129.00734
G0 F9000 X99.807 Y129.792
G1 F2400 X99.807 Y118.676 E129.84104
G1 X123.193 Y118.676 E131.59499
G1 X123.193 Y129.792 E132.42869
G1 X99.807 Y129.792 E134.18264
G0 F9000 X100.657 Y129.505
;TYPE:SKIN
G1 F1800 X101.163 Y129.352 E134.21880
G1 X101.870 Y129.352 E134.25867
G1 X102.578 Y129.352 E134.29860
G1 X103.285 Y129.352 E134.33848
G1 X103.992 Y129.352 E134.37835
G1 X104.699 Y129.352 E134.41823
G1 X105.406 Y129.352 E134.45810
G1 X106.113 Y129.352 E134.49798
G1 X106.820 Y129.352 E134.53785
G1 X107.527 Y129.352 E134.57773
G1 X108.234 Y129.352 E134.61760
G1 X108.942 Y129.352 E134.65753
G1 X109.649 Y129.352 E134.69741
G1 X110.356 Y129.352 E134.73728
G1 X111.063 Y129.352 E134.77716
G1 X111.770 Y129.352 E134.81703
G1 X112.477 Y129.352 E134.85691
G1 X113.184 Y129.352 E134.89678
