;FLAVOR:UltiGCode
;TIME:6065
;MATERIAL:4817
;MATERIAL2:0
;NOZZLE_DIAMETER:0.000000
;NOZZLE_DIAMETER2:0.000000

;Layer count: 417
;LAYER:0
M107
G0 F9000 X95.957 Y114.826 Z0.300
;TYPE:SKIRT
G1 F1200 X127.043 Y114.826 E3.73032
G1 X127.043 Y133.642 E5.98824
G1 X95.957 Y133.642 E9.71856
G1 X95.957 Y114.826 E11.97648
G0 F9000 X96.357 Y115.226
G1 F1200 X126.643 Y115.226 E15.61080
G1 X126.643 Y133.242 E17.77272
G1 X96.357 Y133.242 E21.40704
G1 X96.357 Y115.226 E23.56896
G10
G0 F9000 X100.296 Y120.095
;TYPE:FILL
G11
G1 F1200 X100.442 Y120.241 E23.59374
G0 F9000 X100.441 Y123.004
G1 F1200 X100.297 Y123.148 E23.61817
G0 F9000 X100.296 Y125.752
G1 F1200 X100.442 Y125.898 E23.64295
G0 F9000 X100.441 Y128.660
G1 F1200 X100.297 Y128.805 E23.66747
G0 F9000 X100.641 Y129.206
G0 X122.557 Y129.172
G1 F1200 X122.702 Y129.027 E23.69208
G0 F9000 X122.702 Y125.531
G1 F1200 X122.557 Y125.385 E23.71677
G0 F9000 X122.557 Y123.515
G1 F1200 X122.702 Y123.370 E23.74138
G0 F9000 X122.702 Y119.874
G1 F1200 X122.557 Y119.728 E23.76607
G0 F9000 X122.418 Y119.203
;TYPE:WALL-INNER
G1 F1200 X100.582 Y119.203 E26.38639
G1 X100.582 Y129.265 E27.59383
G1 X122.418 Y129.265 E30.21415
G1 X122.418 Y119.203 E31.42159
G0 F9000 X122.843 Y119.026
G1 F1200 X122.843 Y129.442 E32.67151
G1 X100.157 Y129.442 E35.39383
G1 X100.157 Y119.026 E36.64375
G1 X122.843 Y119.026 E39.36607
G0 F9000 X123.243 Y118.626
;TYPE:WALL-OUTER
G1 F1200 X123.243 Y129.842 E40.71199
G1 X99.757 Y129.842 E43.53031
G1 X99.757 Y118.626 E44.87623
G1 X123.243 Y118.626 E47.69455
G0 F9000 X122.943 Y118.836
G0 X122.018 Y119.303
G0 X122.018 Y119.603
G1 F1200 X100.982 Y119.603 E50.21887
G1 X100.982 Y128.865 E51.33031
G1 X122.018 Y128.865 E53.85463
G1 X122.018 Y119.603 E54.96607
;LAYER:1
M106 S63
G0 F9000 X122.557 Y119.728 Z0.360
;TYPE:FILL
G1 F2100 X122.702 Y119.874 E54.97101
G0 F9000 X122.702 Y123.370
G1 F2100 X122.557 Y123.515 E54.97593
G0 F9000 X122.557 Y125.385
G1 F2100 X122.702 Y125.531 E54.98087
G0 F9000 X122.702 Y129.027
G1 F2100 X122.557 Y129.172 E54.98579
G0 F9000 X100.641 Y129.206
G0 X100.441 Y128.660
G1 F2100 X100.297 Y128.805 E54.99070
G0 F9000 X100.442 Y125.898
G1 F2100 X100.296 Y125.752 E54.99565
G0 F9000 X100.297 Y123.148
G1 F2100 X100.441 Y123.004 E55.00054
G0 F9000 X100.442 Y120.241
G1 F2100 X100.296 Y120.095 E55.00550
G0 F9000 X100.582 Y119.203
;TYPE:WALL-INNER
G1 F1800 X100.582 Y129.265 E55.24698
G1 X122.418 Y129.265 E55.77105
G1 X122.418 Y119.203 E56.01254
G1 X100.582 Y119.203 E56.53660
G0 F9000 X100.157 Y119.026
G1 F1800 X122.843 Y119.026 E57.08106
G1 X122.843 Y129.442 E57.33105
G1 X100.157 Y129.442 E57.87551
G1 X100.157 Y119.026 E58.12550
G0 F9000 X99.757 Y118.626
;TYPE:WALL-OUTER
G1 F1320 X123.243 Y118.626 E58.68916
G1 X123.243 Y129.842 E58.95834
G1 X99.757 Y129.842 E59.52201
G1 X99.757 Y118.626 E59.79119
G0 F9000 X100.057 Y118.836
G0 X100.982 Y119.303
G0 X100.982 Y119.603
G1 F1320 X100.982 Y128.865 E60.01348
G1 X122.018 Y128.865 E60.51834
G1 X122.018 Y119.603 E60.74063
G1 X100.982 Y119.603 E61.24550
;LAYER:2
M106 S127
G0 F9000 X100.442 Y120.241 Z0.420
;TYPE:FILL
G1 F3000 X100.296 Y120.095 E61.25045
G0 F9000 X100.441 Y123.004
G1 F3000 X100.297 Y123.148 E61.25534
G0 F9000 X100.296 Y125.752
G1 F3000 X100.442 Y125.898 E61.26029
G0 F9000 X100.441 Y128.660
G1 F3000 X100.297 Y128.805 E61.26520
G0 F9000 X100.641 Y129.206
G0 X122.557 Y129.172
G1 F3000 X122.702 Y129.027 E61.27012
G0 F9000 X122.702 Y125.531
G1 F3000 X122.557 Y125.385 E61.27506
G0 F9000 X122.557 Y123.515
G1 F3000 X122.702 Y123.370 E61.27998
G0 F9000 X122.702 Y119.874
G1 F3000 X122.557 Y119.728 E61.28492
G0 F9000 X122.418 Y119.203
;TYPE:WALL-INNER
G1 F2400 X100.582 Y119.203 E61.80898
G1 X100.582 Y129.265 E62.05047
G1 X122.418 Y129.265 E62.57453
G1 X122.418 Y119.203 E62.81602
G0 F9000 X122.843 Y119.026
G1 F2400 X122.843 Y129.442 E63.06601
G1 X100.157 Y129.442 E63.61047
G1 X100.157 Y119.026 E63.86045
G1 X122.843 Y119.026 E64.40492
G0 F9000 X123.243 Y118.626
;TYPE:WALL-OUTER
G1 F1500 X123.243 Y129.842 E64.67410
G1 X99.757 Y129.842 E65.23777
G1 X99.757 Y118.626 E65.50695
G1 X123.243 Y118.626 E66.07061
G0 F9000 X122.943 Y118.836
G0 X122.018 Y119.303
G0 X122.018 Y119.603
G1 F1500 X100.982 Y119.603 E66.57548
G1 X100.982 Y128.865 E66.79777
G1 X122.018 Y128.865 E67.30263
G1 X122.018 Y119.603 E67.52492
;LAYER:3
M106 S191
G0 F9000 X122.557 Y119.728 Z0.480
;TYPE:FILL
G1 F3900 X122.702 Y119.874 E67.52986
G0 F9000 X122.702 Y123.370
G1 F3900 X122.557 Y123.515 E67.53478
G0 F9000 X122.557 Y125.385
G1 F3900 X122.702 Y125.531 E67.53972
G0 F9000 X122.702 Y129.027
G1 F3900 X122.557 Y129.172 E67.54464
G0 F9000 X100.641 Y129.206
G0 X100.441 Y128.660
G1 F3900 X100.297 Y128.805 E67.54954
G0 F9000 X100.442 Y125.898
G1 F3900 X100.296 Y125.752 E67.55450
G0 F9000 X100.297 Y123.148
G1 F3900 X100.441 Y123.004 E67.55939
G0 F9000 X100.442 Y120.241
G1 F3900 X100.296 Y120.095 E67.56434
G0 F9000 X100.582 Y119.203
;TYPE:WALL-INNER
G1 F3000 X100.582 Y129.265 E67.80583
G1 X122.418 Y129.265 E68.32989
G1 X122.418 Y119.203 E68.57138
G1 X100.582 Y119.203 E69.09545
G0 F9000 X100.157 Y119.026
G1 F3000 X122.843 Y119.026 E69.63991
G1 X122.843 Y129.442 E69.88989
G1 X100.157 Y129.442 E70.43436
G1 X100.157 Y119.026 E70.68434
G0 F9000 X99.757 Y118.626
;TYPE:WALL-OUTER
G1 F1620 X123.243 Y118.626 E71.24801
G1 X123.243 Y129.842 E71.51719
G1 X99.757 Y129.842 E72.08085
G1 X99.757 Y118.626 E72.35004
G0 F9000 X100.057 Y118.836
G0 X100.982 Y119.303
G0 X100.982 Y119.603
G1 F1620 X100.982 Y128.865 E72.57233
G1 X122.018 Y128.865 E73.07719
G1 X122.018 Y119.603 E73.29948
G1 X100.982 Y119.603 E73.80434
;LAYER:4
M106 S255
G0 F9000 X100.442 Y120.241 Z0.540
;TYPE:FILL
G1 F4800 X100.296 Y120.095 E73.80930
G0 F9000 X100.441 Y123.004
G1 F4800 X100.297 Y123.148 E73.81418
G0 F9000 X100.296 Y125.752
G1 F4800 X100.442 Y125.898 E73.81914
G0 F9000 X100.441 Y128.660
G1 F4800 X100.297 Y128.805 E73.82404
G0 F9000 X100.641 Y129.206
G0 X122.557 Y129.172
G1 F4800 X122.702 Y129.027 E73.82897
G0 F9000 X122.702 Y125.531
G1 F4800 X122.557 Y125.385 E73.83390
G0 F9000 X122.557 Y123.515
G1 F4800 X122.702 Y123.370 E73.83883
G0 F9000 X122.702 Y119.874
G1 F4800 X122.557 Y119.728 E73.84376
G0 F9000 X122.418 Y119.203
;TYPE:WALL-INNER
G1 F3600 X100.582 Y119.203 E74.36783
G1 X100.582 Y129.265 E74.60932
G1 X122.418 Y129.265 E75.13338
G1 X122.418 Y119.203 E75.37487
G0 F9000 X122.843 Y119.026
G1 F3600 X122.843 Y129.442 E75.62485
G1 X100.157 Y129.442 E76.16932
G1 X100.157 Y119.026 E76.41930
G1 X122.843 Y119.026 E76.96376
G0 F9000 X123.243 Y118.626
;TYPE:WALL-OUTER
G1 F1800 X123.243 Y129.842 E77.23295
G1 X99.757 Y129.842 E77.79661
G1 X99.757 Y118.626 E78.06580
G1 X123.243 Y118.626 E78.62946
G0 F9000 X122.943 Y118.836
G0 X122.018 Y119.303
G0 X122.018 Y119.603
G1 F1800 X100.982 Y119.603 E79.13432
G1 X100.982 Y128.865 E79.35661
G1 X122.018 Y128.865 E79.86148
G1 X122.018 Y119.603 E80.08376
;LAYER:5
G0 F9000 X122.557 Y119.728 Z0.600
;TYPE:FILL
G1 F4800 X122.702 Y119.874 E80.08870
G0 F9000 X122.702 Y123.370
G1 F4800 X122.557 Y123.515 E80.09362
G0 F9000 X122.557 Y125.385
G1 F4800 X122.702 Y125.531 E80.09856
G0 F9000 X122.702 Y129.027
G1 F4800 X122.557 Y129.172 E80.10348
G0 F9000 X100.641 Y129.206
G0 X100.441 Y128.660
G1 F4800 X100.297 Y128.805 E80.10839
G0 F9000 X100.442 Y125.898
G1 F4800 X100.296 Y125.752 E80.11334
G0 F9000 X100.297 Y123.148
G1 F4800 X100.441 Y123.004 E80.11823
G0 F9000 X100.442 Y120.241
G1 F4800 X100.296 Y120.095 E80.12319
G0 F9000 X100.582 Y119.203
;TYPE:WALL-INNER
G1 F3600 X100.582 Y129.265 E80.36468
G1 X122.418 Y129.265 E80.88874
G1 X122.418 Y119.203 E81.13023
G1 X100.582 Y119.203 E81.65429
G0 F9000 X100.157 Y119.026
G1 F3600 X122.843 Y119.026 E82.19876
G1 X122.843 Y129.442 E82.44874
G1 X100.157 Y129.442 E82.99320
G1 X100.157 Y119.026 E83.24319
G0 F9000 X99.757 Y118.626
;TYPE:WALL-OUTER
G1 F1800 X123.243 Y118.626 E83.80685
G1 X123.243 Y129.842 E84.07604
G1 X99.757 Y129.842 E84.63970
G1 X99.757 Y118.626 E84.90888
G0 F9000 X100.057 Y118.836
G0 X100.982 Y119.303
G0 X100.982 Y119.603
G1 F1800 X100.982 Y128.865 E85.13117
G1 X122.018 Y128.865 E85.63604
G1 X122.018 Y119.603 E85.85832
G1 X100.982 Y119.603 E86.36319
;LAYER:6
G0 F9000 X100.442 Y120.241 Z0.660
;TYPE:FILL
G1 F4800 X100.296 Y120.095 E86.36814
G0 F9000 X100.441 Y123.004
G1 F4800 X100.297 Y123.148 E86.37303
G0 F9000 X100.296 Y125.752
G1 F4800 X100.442 Y125.898 E86.37799
G0 F9000 X100.441 Y128.660
G1 F4800 X100.297 Y128.805 E86.38289
G0 F9000 X100.641 Y129.206
G0 X122.557 Y129.172
G1 F4800 X122.702 Y129.027 E86.38781
G0 F9000 X122.702 Y125.531
G1 F4800 X122.557 Y125.385 E86.39275
G0 F9000 X122.557 Y123.515
G1 F4800 X122.702 Y123.370 E86.39767
G0 F9000 X122.702 Y119.874
G1 F4800 X122.557 Y119.728 E86.40261
G0 F9000 X122.418 Y119.203
;TYPE:WALL-INNER
G1 F3600 X100.582 Y119.203 E86.92667
G1 X100.582 Y129.265 E87.16816
G1 X122.418 Y129.265 E87.69223
G1 X122.418 Y119.203 E87.93371
G0 F9000 X122.843 Y119.026
G1 F3600 X122.843 Y129.442 E88.18370
G1 X100.157 Y129.442 E88.72816
G1 X100.157 Y119.026 E88.97815
G1 X122.843 Y119.026 E89.52261
G0 F9000 X123.243 Y118.626
;TYPE:WALL-OUTER
G1 F1800 X123.243 Y129.842 E89.79179
G1 X99.757 Y129.842 E90.35546
G1 X99.757 Y118.626 E90.62464
G1 X123.243 Y118.626 E91.18831
G0 F9000 X122.943 Y118.836
G0 X122.018 Y119.303
G0 X122.018 Y119.603
G1 F1800 X100.982 Y119.603 E91.69317
G1 X100.982 Y128.865 E91.91546
G1 X122.018 Y128.865 E92.42032
G1 X122.018 Y119.603 E92.64261
;LAYER:7
G0 F9000 X122.557 Y119.728 Z0.720
;TYPE:FILL
G1 F4800 X122.702 Y119.874 E92.64755
G0 F9000 X122.702 Y123.370
G1 F4800 X122.557 Y123.515 E92.65247
G0 F9000 X122.557 Y125.385
G1 F4800 X122.702 Y125.531 E92.65741
G0 F9000 X122.702 Y129.027
G1 F4800 X122.557 Y129.172 E92.66233
G0 F9000 X100.641 Y129.206
G0 X100.441 Y128.660
G1 F4800 X100.297 Y128.805 E92.66723
G0 F9000 X100.442 Y125.898
G1 F4800 X100.296 Y125.752 E92.67219
G0 F9000 X100.297 Y123.148
G1 F4800 X100.441 Y123.004 E92.67708
G0 F9000 X100.442 Y120.241
G1 F4800 X100.296 Y120.095 E92.68203
G0 F9000 X100.582 Y119.203
;TYPE:WALL-INNER
G1 F3600 X100.582 Y129.265 E92.92352
G1 X122.418 Y129.265 E93.44758
G1 X122.418 Y119.203 E93.68907
G1 X100.582 Y119.203 E94.21314
G0 F9000 X100.157 Y119.026
G1 F3600 X122.843 Y119.026 E94.75760
G1 X122.843 Y129.442 E95.00758
G1 X100.157 Y129.442 E95.55205
G1 X100.157 Y119.026 E95.80203
G0 F9000 X99.757 Y118.626
;TYPE:WALL-OUTER
G1 F1800 X123.243 Y118.626 E96.36570
G1 X123.243 Y129.842 E96.63488
G1 X99.757 Y129.842 E97.19854
G1 X99.757 Y118.626 E97.46773
G0 F9000 X100.057 Y118.836
G0 X100.982 Y119.303
G0 X100.982 Y119.603
G1 F1800 X100.982 Y128.865 E97.69002
G1 X122.018 Y128.865 E98.19488
G1 X122.018 Y119.603 E98.41717
G1 X100.982 Y119.603 E98.92203
;LAYER:8
G0 F9000 X100.442 Y120.241 Z0.780
;TYPE:FILL
G1 F4800 X100.296 Y120.095 E98.92699
G0 F9000 X100.441 Y123.004
G1 F4800 X100.297 Y123.148 E98.93188
G0 F9000 X100.296 Y125.752
G1 F4800 X100.442 Y125.898 E98.93683
G0 F9000 X100.441 Y128.660
G1 F4800 X100.297 Y128.805 E98.94174
G0 F9000 X100.641 Y129.206
G0 X122.557 Y129.172
G1 F4800 X122.702 Y129.027 E98.94666
G0 F9000 X122.702 Y125.531
G1 F4800 X122.557 Y125.385 E98.95160
G0 F9000 X122.557 Y123.515
G1 F4800 X122.702 Y123.370 E98.95652
G0 F9000 X122.702 Y119.874
G1 F4800 X122.557 Y119.728 E98.96146
G0 F9000 X122.418 Y119.203
;TYPE:WALL-INNER
G1 F3600 X100.582 Y119.203 E99.48552
G1 X100.582 Y129.265 E99.72701
G1 X122.418 Y129.265 E100.25107
G1 X122.418 Y119.203 E100.49256
G0 F9000 X122.843 Y119.026
G1 F3600 X122.843 Y129.442 E100.74254
G1 X100.157 Y129.442 E101.28701
G1 X100.157 Y119.026 E101.53699
G1 X122.843 Y119.026 E102.08146
G0 F9000 X123.243 Y118.626
;TYPE:WALL-OUTER
G1 F1800 X123.243 Y129.842 E102.35064
G1 X99.757 Y129.842 E102.91430
G1 X99.757 Y118.626 E103.18349
G1 X123.243 Y118.626 E103.74715
G0 F9000 X122.943 Y118.836
G0 X122.018 Y119.303
G0 X122.018 Y119.603
G1 F1800 X100.982 Y119.603 E104.25202
G1 X100.982 Y128.865 E104.47430
G1 X122.018 Y128.865 E104.97917
G1 X122.018 Y119.603 E105.20146
;LAYER:9
G0 F9000 X122.557 Y119.728 Z0.840
;TYPE:FILL
G1 F4800 X122.702 Y119.874 E105.20639
G0 F9000 X122.702 Y123.370
G1 F4800 X122.557 Y123.515 E105.21132
G0 F9000 X122.557 Y125.385
G1 F4800 X122.702 Y125.531 E105.21625
G0 F9000 X122.702 Y129.027
G1 F4800 X122.557 Y129.172 E105.22118
G0 F9000 X100.641 Y129.206
G0 X100.441 Y128.660
G1 F4800 X100.297 Y128.805 E105.22608
G0 F9000 X100.442 Y125.898
G1 F4800 X100.296 Y125.752 E105.23103
G0 F9000 X100.297 Y123.148
G1 F4800 X100.441 Y123.004 E105.23592
G0 F9000 X100.442 Y120.241
G1 F4800 X100.296 Y120.095 E105.24088
G0 F9000 X100.582 Y119.203
;TYPE:WALL-INNER
G1 F3600 X100.582 Y129.265 E105.48237
G1 X122.418 Y129.265 E106.00643
G1 X122.418 Y119.203 E106.24792
G1 X100.582 Y119.203 E106.77198
G0 F9000 X100.157 Y119.026
G1 F3600 X122.843 Y119.026 E107.31645
G1 X122.843 Y129.442 E107.56643
G1 X100.157 Y129.442 E108.11089
G1 X100.157 Y119.026 E108.36088
G0 F9000 X99.757 Y118.626
;TYPE:WALL-OUTER
G1 F1800 X123.243 Y118.626 E108.92454
G1 X123.243 Y129.842 E109.19373
G1 X99.757 Y129.842 E109.75739
G1 X99.757 Y118.626 E110.02657
G0 F9000 X100.057 Y118.836
G0 X100.982 Y119.303
G0 X100.982 Y119.603
G1 F1800 X100.982 Y128.865 E110.24886
G1 X122.018 Y128.865 E110.75373
G1 X122.018 Y119.603 E110.97601
G1 X100.982 Y119.603 E111.48088
;LAYER:10
G0 F9000 X100.442 Y120.241 Z0.900
;TYPE:FILL
G1 F4800 X100.296 Y120.095 E111.48583
G0 F9000 X100.441 Y123.004
G1 F4800 X100.297 Y123.148 E111.49072
G0 F9000 X100.296 Y125.752
G1 F4800 X100.442 Y125.898 E111.49568
G0 F9000 X100.441 Y128.660
G1 F4800 X100.297 Y128.805 E111.50058
G0 F9000 X100.641 Y129.206
G0 X122.557 Y129.172
G1 F4800 X122.702 Y129.027 E111.50550
G0 F9000 X122.702 Y125.531
G1 F4800 X122.557 Y125.385 E111.51044
G0 F9000 X122.557 Y123.515
G1 F4800 X122.702 Y123.370 E111.51536
G0 F9000 X122.702 Y119.874
G1 F4800 X122.557 Y119.728 E111.52030
G0 F9000 X122.418 Y119.203
;TYPE:WALL-INNER
G1 F3600 X100.582 Y119.203 E112.04436
G1 X100.582 Y129.265 E112.28585
G1 X122.418 Y129.265 E112.80992
G1 X122.418 Y119.203 E113.05140
G0 F9000 X122.843 Y119.026
G1 F3600 X122.843 Y129.442 E113.30139
G1 X100.157 Y129.442 E113.84585
G1 X100.157 Y119.026 E114.09584
G1 X122.843 Y119.026 E114.64030
G0 F9000 X123.243 Y118.626
;TYPE:WALL-OUTER
G1 F1800 X123.243 Y129.842 E114.90948
G1 X99.757 Y129.842 E115.47315
G1 X99.757 Y118.626 E115.74233
G1 X123.243 Y118.626 E116.30600
G0 F9000 X122.943 Y118.836
G0 X122.018 Y119.303
G0 X122.018 Y119.603
G1 F1800 X100.982 Y119.603 E116.81086
G1 X100.982 Y128.865 E117.03315
G1 X122.018 Y128.865 E117.53801
G1 X122.018 Y119.603 E117.76030
;LAYER:11
G0 F9000 X122.557 Y119.728 Z0.960
;TYPE:FILL
G1 F4800 X122.702 Y119.874 E117.76524
G0 F9000 X122.702 Y123.370
G1 F4800 X122.557 Y123.515 E117.77016
G0 F9000 X122.557 Y125.385
G1 F4800 X122.702 Y125.531 E117.77510
G0 F9000 X122.702 Y129.027
G1 F4800 X122.557 Y129.172 E117.78002
G0 F9000 X100.641 Y129.206
G0 X100.441 Y128.660
G1 F4800 X100.297 Y128.805 E117.78492
G0 F9000 X100.442 Y125.898
G1 F4800 X100.296 Y125.752 E117.78988
G0 F9000 X100.297 Y123.148
G1 F4800 X100.441 Y123.004 E117.79477
G0 F9000 X100.442 Y120.241
G1 F4800 X100.296 Y120.095 E117.79972
G0 F9000 X100.582 Y119.203
;TYPE:WALL-INNER
G1 F3600 X100.582 Y129.265 E118.04121
G1 X122.418 Y129.265 E118.56528
G1 X122.418 Y119.203 E118.80676
G1 X100.582 Y119.203 E119.33083
G0 F9000 X100.157 Y119.026
G1 F3600 X122.843 Y119.026 E119.87529
G1 X122.843 Y129.442 E120.12528
G1 X100.157 Y129.442 E120.66974
G1 X100.157 Y119.026 E120.91972
G0 F9000 X99.757 Y118.626
;TYPE:WALL-OUTER
G1 F1800 X123.243 Y118.626 E121.48339
G1 X123.243 Y129.842 E121.75257
G1 X99.757 Y129.842 E122.31624
G1 X99.757 Y118.626 E122.58542
G0 F9000 X100.057 Y118.836
G0 X100.982 Y119.303
G0 X100.982 Y119.603
G1 F1800 X100.982 Y128.865 E122.80771
G1 X122.018 Y128.865 E123.31257
G1 X122.018 Y119.603 E123.53486
G1 X100.982 Y119.603 E124.03972
;LAYER:12
G0 F9000 X100.442 Y120.241 Z1.020
;TYPE:FILL
G1 F4800 X100.296 Y120.095 E124.04468
G0 F9000 X100.441 Y123.004
G1 F4800 X100.297 Y123.148 E124.04957
G0 F9000 X100.296 Y125.752
G1 F4800 X100.442 Y125.898 E124.05452
G0 F9000 X100.441 Y128.660
