;FLAVOR:UltiGCode
;TIME:3258
;MATERIAL:2489
;MATERIAL2:0
;NOZZLE_DIAMETER:0.000000
;NOZZLE_DIAMETER2:0.000000

;Layer count: 417
;LAYER:0
M107
G0 F9000 X95.957 Y102.092 Z0.300
;TYPE:SKIRT
G1 F1200 X127.043 Y102.092 E3.73032
G1 X127.043 Y120.908 E5.98824
G1 X95.957 Y120.908 E9.71856
G1 X95.957 Y102.092 E11.97648
G0 F9000 X96.357 Y102.492
G1 F1200 X126.643 Y102.492 E15.61080
G1 X126.643 Y120.508 E17.77272
G1 X96.357 Y120.508 E21.40704
G1 X96.357 Y102.492 E23.56896
G10
G0 F9000 X100.296 Y108.782
;TYPE:FILL
G11
G1 F1200 X100.442 Y108.927 E23.59365
G0 F9000 X100.442 Y111.689
G1 F1200 X100.296 Y111.835 E23.61843
G0 F9000 X100.296 Y114.438
G1 F1200 X100.442 Y114.584 E23.64321
G0 F9000 X100.641 Y106.528
G0 X122.359 Y106.528
G0 X122.557 Y114.071
G1 F1200 X122.702 Y114.217 E23.66790
G0 F9000 X122.557 Y112.202
G1 F1200 X122.702 Y112.057 E23.69251
G0 F9000 X122.702 Y108.560
G1 F1200 X122.557 Y108.415 E23.71711
G0 F9000 X122.557 Y106.545
G1 F1200 X122.671 Y106.431 E23.73646
G0 F9000 X122.843 Y106.292
;TYPE:WALL-INNER
G1 F1200 X122.843 Y116.708 E24.98638
G1 X100.157 Y116.708 E27.70870
G1 X100.157 Y106.292 E28.95862
G1 X122.843 Y106.292 E31.68094
G0 F9000 X122.418 Y106.469
G1 F1200 X100.582 Y106.469 E34.30126
G1 X100.582 Y116.531 E35.50870
G1 X122.418 Y116.531 E38.12902
G1 X122.418 Y106.469 E39.33646
G0 F9000 X122.018 Y106.869
;TYPE:WALL-OUTER
G1 F1200 X100.982 Y106.869 E41.86078
G1 X100.982 Y116.131 E42.97222
G1 X122.018 Y116.131 E45.49654
G1 X122.018 Y106.869 E46.60798
G0 F9000 X122.018 Y106.569
G0 X122.943 Y106.102
G0 X123.243 Y105.892
G1 F1200 X123.243 Y117.108 E47.95390
G1 X99.757 Y117.108 E50.77222
G1 X99.757 Y105.892 E52.11814
G1 X123.243 Y105.892 E54.93646
G0 F9000 X122.243 Y106.892
;LAYER:1
M106 S63
G0 X122.557 Y106.545 Z0.360
;TYPE:FILL
G1 F2100 X122.671 Y106.431 E54.94033
G0 F9000 X122.557 Y108.415
G1 F2100 X122.702 Y108.560 E54.94525
G0 F9000 X122.702 Y112.057
G1 F2100 X122.557 Y112.202 E54.95017
G0 F9000 X122.557 Y114.071
G1 F2100 X122.702 Y114.217 E54.95511
G0 F9000 X122.359 Y116.472
G0 X100.641 Y116.472
G0 X100.442 Y114.584
G1 F2100 X100.296 Y114.438 E54.96007
G0 F9000 X100.296 Y111.835
G1 F2100 X100.442 Y111.689 E54.96502
G0 F9000 X100.442 Y108.927
G1 F2100 X100.296 Y108.782 E54.96996
G0 F9000 X100.582 Y106.469
;TYPE:WALL-INNER
G1 F1800 X100.582 Y116.531 E55.21145
G1 X122.418 Y116.531 E55.73551
G1 X122.418 Y106.469 E55.97700
G1 X100.582 Y106.469 E56.50106
G0 F9000 X100.157 Y106.292
G1 F1800 X122.843 Y106.292 E57.04553
G1 X122.843 Y116.708 E57.29551
G1 X100.157 Y116.708 E57.83998
G1 X100.157 Y106.292 E58.08996
G0 F9000 X99.757 Y105.892
;TYPE:WALL-OUTER
G1 F1320 X123.243 Y105.892 E58.65362
G1 X123.243 Y117.108 E58.92281
G1 X99.757 Y117.108 E59.48647
G1 X99.757 Y105.892 E59.75566
G0 F9000 X100.057 Y106.102
G0 X100.982 Y106.569
G0 X100.982 Y106.869
G1 F1320 X100.982 Y116.131 E59.97794
G1 X122.018 Y116.131 E60.48281
G1 X122.018 Y106.869 E60.70510
G1 X100.982 Y106.869 E61.20996
;LAYER:2
M106 S127
G0 F9000 X100.982 Y106.569 Z0.420
G0 X100.641 Y106.528
G0 X100.296 Y108.782
;TYPE:FILL
G1 F3000 X100.442 Y108.927 E61.21490
G0 F9000 X100.442 Y111.689
G1 F3000 X100.296 Y111.835 E61.21985
G0 F9000 X100.296 Y114.438
G1 F3000 X100.442 Y114.584 E61.22481
G0 F9000 X100.641 Y106.528
G0 X122.359 Y106.528
G0 X122.557 Y114.071
G1 F3000 X122.702 Y114.217 E61.22975
G0 F9000 X122.557 Y112.202
G1 F3000 X122.702 Y112.057 E61.23467
G0 F9000 X122.702 Y108.560
G1 F3000 X122.557 Y108.415 E61.23959
G0 F9000 X122.557 Y106.545
G1 F3000 X122.671 Y106.431 E61.24346
G0 F9000 X122.843 Y106.292
;TYPE:WALL-INNER
G1 F2400 X122.843 Y116.708 E61.49344
G1 X100.157 Y116.708 E62.03791
G1 X100.157 Y106.292 E62.28789
G1 X122.843 Y106.292 E62.83236
G0 F9000 X122.418 Y106.469
G1 F2400 X100.582 Y106.469 E63.35642
G1 X100.582 Y116.531 E63.59791
G1 X122.418 Y116.531 E64.12197
G1 X122.418 Y106.469 E64.36346
G0 F9000 X122.018 Y106.869
;TYPE:WALL-OUTER
G1 F1500 X100.982 Y106.869 E64.86832
G1 X100.982 Y116.131 E65.09061
G1 X122.018 Y116.131 E65.59548
G1 X122.018 Y106.869 E65.81776
G0 F9000 X122.018 Y106.569
G0 X122.943 Y106.102
G0 X123.243 Y105.892
G1 F1500 X123.243 Y117.108 E66.08695
G1 X99.757 Y117.108 E66.65061
G1 X99.757 Y105.892 E66.91980
G1 X123.243 Y105.892 E67.48346
G0 F9000 X122.243 Y106.892
;LAYER:3
M106 S191
G0 X122.557 Y106.545 Z0.480
;TYPE:FILL
G1 F3900 X122.671 Y106.431 E67.48733
G0 F9000 X122.557 Y108.415
G1 F3900 X122.702 Y108.560 E67.49225
G0 F9000 X122.702 Y112.057
G1 F3900 X122.557 Y112.202 E67.49717
G0 F9000 X122.557 Y114.071
G1 F3900 X122.702 Y114.217 E67.50211
G0 F9000 X122.359 Y116.472
G0 X100.641 Y116.472
G0 X100.442 Y114.584
G1 F3900 X100.296 Y114.438 E67.50707
G0 F9000 X100.296 Y111.835
G1 F3900 X100.442 Y111.689 E67.51202
G0 F9000 X100.442 Y108.927
G1 F3900 X100.296 Y108.782 E67.51696
G0 F9000 X100.582 Y106.469
;TYPE:WALL-INNER
G1 F3000 X100.582 Y116.531 E67.75845
G1 X122.418 Y116.531 E68.28251
G1 X122.418 Y106.469 E68.52400
G1 X100.582 Y106.469 E69.04806
G0 F9000 X100.157 Y106.292
G1 F3000 X122.843 Y106.292 E69.59253
G1 X122.843 Y116.708 E69.84251
G1 X100.157 Y116.708 E70.38698
G1 X100.157 Y106.292 E70.63696
G0 F9000 X99.757 Y105.892
;TYPE:WALL-OUTER
G1 F1620 X123.243 Y105.892 E71.20062
G1 X123.243 Y117.108 E71.46981
G1 X99.757 Y117.108 E72.03347
G1 X99.757 Y105.892 E72.30266
G0 F9000 X100.057 Y106.102
G0 X100.982 Y106.569
G0 X100.982 Y106.869
G1 F1620 X100.982 Y116.131 E72.52494
G1 X122.018 Y116.131 E73.02981
G1 X122.018 Y106.869 E73.25210
G1 X100.982 Y106.869 E73.75696
;LAYER:4
M106 S255
G0 F9000 X100.982 Y106.569 Z0.540
G0 X100.641 Y106.528
G0 X100.296 Y108.782
;TYPE:FILL
G1 F4800 X100.442 Y108.927 E73.76190
G0 F9000 X100.442 Y111.689
G1 F4800 X100.296 Y111.835 E73.76685
G0 F9000 X100.296 Y114.438
G1 F4800 X100.442 Y114.584 E73.77181
G0 F9000 X100.641 Y106.528
G0 X122.359 Y106.528
G0 X122.557 Y114.071
G1 F4800 X122.702 Y114.217 E73.77675
G0 F9000 X122.557 Y112.202
G1 F4800 X122.702 Y112.057 E73.78167
G0 F9000 X122.702 Y108.560
G1 F4800 X122.557 Y108.415 E73.78659
G0 F9000 X122.557 Y106.545
G1 F4800 X122.671 Y106.431 E73.79046
G0 F9000 X122.843 Y106.292
;TYPE:WALL-INNER
G1 F3600 X122.843 Y116.708 E74.04044
G1 X100.157 Y116.708 E74.58491
G1 X100.157 Y106.292 E74.83489
G1 X122.843 Y106.292 E75.37936
G0 F9000 X122.418 Y106.469
G1 F3600 X100.582 Y106.469 E75.90342
G1 X100.582 Y116.531 E76.14491
G1 X122.418 Y116.531 E76.66897
G1 X122.418 Y106.469 E76.91046
G0 F9000 X122.018 Y106.869
;TYPE:WALL-OUTER
G1 F1800 X100.982 Y106.869 E77.41532
G1 X100.982 Y116.131 E77.63761
G1 X122.018 Y116.131 E78.14248
G1 X122.018 Y106.869 E78.36476
G0 F9000 X122.018 Y106.569
G0 X122.943 Y106.102
G0 X123.243 Y105.892
G1 F1800 X123.243 Y117.108 E78.63395
G1 X99.757 Y117.108 E79.19761
G1 X99.757 Y105.892 E79.46680
G1 X123.243 Y105.892 E80.03046
G0 F9000 X122.243 Y106.892
;LAYER:5
G0 X122.557 Y106.545 Z0.600
;TYPE:FILL
G1 F4800 X122.671 Y106.431 E80.03433
G0 F9000 X122.557 Y108.415
G1 F4800 X122.702 Y108.560 E80.03925
G0 F9000 X122.702 Y112.057
G1 F4800 X122.557 Y112.202 E80.04417
G0 F9000 X122.557 Y114.071
G1 F4800 X122.702 Y114.217 E80.04911
G0 F9000 X122.359 Y116.472
G0 X100.641 Y116.472
G0 X100.442 Y114.584
G1 F4800 X100.296 Y114.438 E80.05407
G0 F9000 X100.296 Y111.835
G1 F4800 X100.442 Y111.689 E80.05902
G0 F9000 X100.442 Y108.927
G1 F4800 X100.296 Y108.782 E80.06396
G0 F9000 X100.582 Y106.469
;TYPE:WALL-INNER
G1 F3600 X100.582 Y116.531 E80.30545
G1 X122.418 Y116.531 E80.82951
G1 X122.418 Y106.469 E81.07100
G1 X100.582 Y106.469 E81.59506
G0 F9000 X100.157 Y106.292
G1 F3600 X122.843 Y106.292 E82.13953
G1 X122.843 Y116.708 E82.38951
G1 X100.157 Y116.708 E82.93398
G1 X100.157 Y106.292 E83.18396
G0 F9000 X99.757 Y105.892
;TYPE:WALL-OUTER
G1 F1800 X123.243 Y105.892 E83.74762
G1 X123.243 Y117.108 E84.01681
G1 X99.757 Y117.108 E84.58047
G1 X99.757 Y105.892 E84.84966
G0 F9000 X100.057 Y106.102
G0 X100.982 Y106.569
G0 X100.982 Y106.869
G1 F1800 X100.982 Y116.131 E85.07194
G1 X122.018 Y116.131 E85.57681
G1 X122.018 Y106.869 E85.79910
G1 X100.982 Y106.869 E86.30396
;LAYER:6
G0 F9000 X100.982 Y106.569 Z0.660
G0 X100.641 Y106.528
G0 X100.296 Y108.782
;TYPE:FILL
G1 F4800 X100.442 Y108.927 E86.30890
G0 F9000 X100.442 Y111.689
G1 F4800 X100.296 Y111.835 E86.31385
G0 F9000 X100.296 Y114.438
G1 F4800 X100.442 Y114.584 E86.31881
G0 F9000 X100.641 Y106.528
G0 X122.359 Y106.528
G0 X122.557 Y114.071
G1 F4800 X122.702 Y114.217 E86.32375
G0 F9000 X122.557 Y112.202
G1 F4800 X122.702 Y112.057 E86.32867
G0 F9000 X122.702 Y108.560
G1 F4800 X122.557 Y108.415 E86.33359
G0 F9000 X122.557 Y106.545
G1 F4800 X122.671 Y106.431 E86.33746
G0 F9000 X122.843 Y106.292
;TYPE:WALL-INNER
G1 F3600 X122.843 Y116.708 E86.58744
G1 X100.157 Y116.708 E87.13191
G1 X100.157 Y106.292 E87.38189
G1 X122.843 Y106.292 E87.92636
G0 F9000 X122.418 Y106.469
G1 F3600 X100.582 Y106.469 E88.45042
G1 X100.582 Y116.531 E88.69191
G1 X122.418 Y116.531 E89.21597
G1 X122.418 Y106.469 E89.45746
G0 F9000 X122.018 Y106.869
;TYPE:WALL-OUTER
G1 F1800 X100.982 Y106.869 E89.96232
G1 X100.982 Y116.131 E90.18461
G1 X122.018 Y116.131 E90.68948
G1 X122.018 Y106.869 E90.91176
G0 F9000 X122.018 Y106.569
G0 X122.943 Y106.102
G0 X123.243 Y105.892
G1 F1800 X123.243 Y117.108 E91.18095
G1 X99.757 Y117.108 E91.74461
G1 X99.757 Y105.892 E92.01380
G1 X123.243 Y105.892 E92.57746
G0 F9000 X122.243 Y106.892
;LAYER:7
G0 X122.557 Y106.545 Z0.720
;TYPE:FILL
G1 F4800 X122.671 Y106.431 E92.58133
G0 F9000 X122.557 Y108.415
G1 F4800 X122.702 Y108.560 E92.58625
G0 F9000 X122.702 Y112.057
G1 F4800 X122.557 Y112.202 E92.59117
G0 F9000 X122.557 Y114.071
G1 F4800 X122.702 Y114.217 E92.59611
G0 F9000 X122.359 Y116.472
G0 X100.641 Y116.472
G0 X100.442 Y114.584
G1 F4800 X100.296 Y114.438 E92.60107
G0 F9000 X100.296 Y111.835
G1 F4800 X100.442 Y111.689 E92.60602
G0 F9000 X100.442 Y108.927
G1 F4800 X100.296 Y108.782 E92.61096
G0 F9000 X100.582 Y106.469
;TYPE:WALL-INNER
G1 F3600 X100.582 Y116.531 E92.85245
G1 X122.418 Y116.531 E93.37651
G1 X122.418 Y106.469 E93.61800
G1 X100.582 Y106.469 E94.14206
G0 F9000 X100.157 Y106.292
G1 F3600 X122.843 Y106.292 E94.68653
G1 X122.843 Y116.708 E94.93651
G1 X100.157 Y116.708 E95.48098
G1 X100.157 Y106.292 E95.73096
G0 F9000 X99.757 Y105.892
;TYPE:WALL-OUTER
G1 F1800 X123.243 Y105.892 E96.29462
G1 X123.243 Y117.108 E96.56381
G1 X99.757 Y117.108 E97.12747
G1 X99.757 Y105.892 E97.39666
G0 F9000 X100.057 Y106.102
G0 X100.982 Y106.569
G0 X100.982 Y106.869
G1 F1800 X100.982 Y116.131 E97.61894
G1 X122.018 Y116.131 E98.12381
G1 X122.018 Y106.869 E98.34610
G1 X100.982 Y106.869 E98.85096
;LAYER:8
G0 F9000 X100.982 Y106.569 Z0.780
G0 X100.641 Y106.528
G0 X100.296 Y108.782
;TYPE:FILL
G1 F4800 X100.442 Y108.927 E98.85590
G0 F9000 X100.442 Y111.689
G1 F4800 X100.296 Y111.835 E98.86085
G0 F9000 X100.296 Y114.438
G1 F4800 X100.442 Y114.584 E98.86581
G0 F9000 X100.641 Y106.528
G0 X122.359 Y106.528
G0 X122.557 Y114.071
G1 F4800 X122.702 Y114.217 E98.87075
G0 F9000 X122.557 Y112.202
G1 F4800 X122.702 Y112.057 E98.87567
G0 F9000 X122.702 Y108.560
G1 F4800 X122.557 Y108.415 E98.88059
G0 F9000 X122.557 Y106.545
G1 F4800 X122.671 Y106.431 E98.88446
G0 F9000 X122.843 Y106.292
;TYPE:WALL-INNER
G1 F3600 X122.843 Y116.708 E99.13444
G1 X100.157 Y116.708 E99.67891
G1 X100.157 Y106.292 E99.92889
G1 X122.843 Y106.292 E100.47336
G0 F9000 X122.418 Y106.469
G1 F3600 X100.582 Y106.469 E100.99742
G1 X100.582 Y116.531 E101.23891
G1 X122.418 Y116.531 E101.76297
G1 X122.418 Y106.469 E102.00446
G0 F9000 X122.018 Y106.869
;TYPE:WALL-OUTER
G1 F1800 X100.982 Y106.869 E102.50932
G1 X100.982 Y116.131 E102.73161
G1 X122.018 Y116.131 E103.23648
G1 X122.018 Y106.869 E103.45876
G0 F9000 X122.018 Y106.569
G0 X122.943 Y106.102
G0 X123.243 Y105.892
G1 F1800 X123.243 Y117.108 E103.72795
G1 X99.757 Y117.108 E104.29161
G1 X99.757 Y105.892 E104.56080
G1 X123.243 Y105.892 E105.12446
G0 F9000 X122.243 Y106.892
;LAYER:9
G0 X122.557 Y106.545 Z0.840
;TYPE:FILL
G1 F4800 X122.671 Y106.431 E105.12833
G0 F9000 X122.557 Y108.415
G1 F4800 X122.702 Y108.560 E105.13325
G0 F9000 X122.702 Y112.057
G1 F4800 X122.557 Y112.202 E105.13817
G0 F9000 X122.557 Y114.071
G1 F4800 X122.702 Y114.217 E105.14311
G0 F9000 X122.359 Y116.472
G0 X100.641 Y116.472
G0 X100.442 Y114.584
G1 F4800 X100.296 Y114.438 E105.14807
G0 F9000 X100.296 Y111.835
G1 F4800 X100.442 Y111.689 E105.15302
G0 F9000 X100.442 Y108.927
G1 F4800 X100.296 Y108.782 E105.15796
G0 F9000 X100.582 Y106.469
;TYPE:WALL-INNER
G1 F3600 X100.582 Y116.531 E105.39945
G1 X122.418 Y116.531 E105.92351
G1 X122.418 Y106.469 E106.16500
G1 X100.582 Y106.469 E106.68906
G0 F9000 X100.157 Y106.292
G1 F3600 X122.843 Y106.292 E107.23353
G1 X122.843 Y116.708 E107.48351
G1 X100.157 Y116.708 E108.02798
G1 X100.157 Y106.292 E108.27796
G0 F9000 X99.757 Y105.892
;TYPE:WALL-OUTER
G1 F1800 X123.243 Y105.892 E108.84162
G1 X123.243 Y117.108 E109.11081
G1 X99.757 Y117.108 E109.67447
G1 X99.757 Y105.892 E109.94366
G0 F9000 X100.057 Y106.102
G0 X100.982 Y106.569
G0 X100.982 Y106.869
G1 F1800 X100.982 Y116.131 E110.16594
G1 X122.018 Y116.131 E110.67081
G1 X122.018 Y106.869 E110.89310
G1 X100.982 Y106.869 E111.39796
;LAYER:10
G0 F9000 X100.982 Y106.569 Z0.900
G0 X100.641 Y106.528
G0 X100.296 Y108.782
;TYPE:FILL
G1 F4800 X100.442 Y108.927 E111.40290
G0 F9000 X100.442 Y111.689
G1 F4800 X100.296 Y111.835 E111.40785
G0 F9000 X100.296 Y114.438
G1 F4800 X100.442 Y114.584 E111.41281
G0 F9000 X100.641 Y106.528
G0 X122.359 Y106.528
G0 X122.557 Y114.071
G1 F4800 X122.702 Y114.217 E111.41775
G0 F9000 X122.557 Y112.202
G1 F4800 X122.702 Y112.057 E111.42267
G0 F9000 X122.702 Y108.560
G1 F4800 X122.557 Y108.415 E111.42759
G0 F9000 X122.557 Y106.545
G1 F4800 X122.671 Y106.431 E111.43146
G0 F9000 X122.843 Y106.292
;TYPE:WALL-INNER
G1 F3600 X122.843 Y116.708 E111.68144
G1 X100.157 Y116.708 E112.22591
G1 X100.157 Y106.292 E112.47589
G1 X122.843 Y106.292 E113.02036
G0 F9000 X122.418 Y106.469
G1 F3600 X100.582 Y106.469 E113.54442
G1 X100.582 Y116.531 E113.78591
G1 X122.418 Y116.531 E114.30997
G1 X122.418 Y106.469 E114.55146
G0 F9000 X122.018 Y106.869
;TYPE:WALL-OUTER
G1 F1800 X100.982 Y106.869 E115.05632
G1 X100.982 Y116.131 E115.27861
G1 X122.018 Y116.131 E115.78348
G1 X122.018 Y106.869 E116.00576
G0 F9000 X122.018 Y106.569
G0 X122.943 Y106.102
G0 X123.243 Y105.892
G1 F1800 X123.243 Y117.108 E116.27495
G1 X99.757 Y117.108 E116.83861
G1 X99.757 Y105.892 E117.10780
G1 X123.243 Y105.892 E117.67146
G0 F9000 X122.243 Y106.892
;LAYER:11
G0 X122.557 Y106.545 Z0.960
;TYPE:FILL
G1 F4800 X122.671 Y106.431 E117.67533
G0 F9000 X122.557 Y108.415
G1 F4800 X122.702 Y108.560 E117.68025
G0 F9000 X122.702 Y112.057
G1 F4800 X122.557 Y112.202 E117.68517
G0 F9000 X122.557 Y114.071
G1 F4800 X122.702 Y114.217 E117.69011
G0 F9000 X122.359 Y116.472
G0 X100.641 Y116.472
G0 X100.442 Y114.584
G1 F4800 X100.296 Y114.438 E117.69507
G0 F9000 X100.296 Y111.835
G1 F4800 X100.442 Y111.689 E117.70002
G0 F9000 X100.442 Y108.927
G1 F4800 X100.296 Y108.782 E117.70496
G0 F9000 X100.582 Y106.469
;TYPE:WALL-INNER
G1 F3600 X100.582 Y116.531 E117.94645
G1 X122.418 Y116.531 E118.47051
G1 X122.418 Y106.469 E118.71200
G1 X100.582 Y106.469 E119.23606
G0 F9000 X100.157 Y106.292
G1 F3600 X122.843 Y106.292 E119.78053
G1 X122.843 Y116.708 E120.03051
G1 X100.157 Y116.708 E120.57498
G1 X100.157 Y106.292 E120.82496
G0 F9000 X99.757 Y105.892
;TYPE:WALL-OUTER
G1 F1800 X123.243 Y105.892 E121.38862
G1 X123.243 Y117.108 E121.65781
G1 X99.757 Y117.108 E122.22147
G1 X99.757 Y105.892 E122.49066
G0 F9000 X100.057 Y106.102
G0 X100.982 Y106.569
G0 X100.982 Y106.869
G1 F1800 X100.982 Y116.131 E122.71294
G1 X122.018 Y116.131 E123.21781
G1 X122.018 Y106.869 E123.44010
G1 X100.982 Y106.869 E123.94496
;LAYER:12
G0 F9000 X100.982 Y106.569 Z1.020
G0 X100.641 Y106.528
G0 X100.296 Y108.782
;TYPE:FILL
G1 F4800 X100.442 Y108.927 E123.94990
G0 F9000 X100.442 Y111.689
G1 F4800 X100.296 Y111.835 E123.95485
G0 F9000 X100.296 Y114.438
G1 F4800 X100.442 Y114.584 E123.95981
G0 F9000 X100.641 Y106.528
G0 X122.359 Y106.528
G0 X122.557 Y114.071
G1 F4800 X122.702 Y114.217 E123.96475
G0 F9000 X122.557 Y112.202
G1 F4800 X122.702 Y112.057 E123.96967
