;FLAVOR:UltiGCode
;TIME:2718
;MATERIAL:2326
;MATERIAL2:0
;NOZZLE_DIAMETER:0.000000
;NOZZLE_DIAMETER2:0.000000

;Layer count: 417
;LAYER:0
M107
G0 F9000 X93.693 Y104.944 Z0.300
;TYPE:SKIRT
G1 F1200 X129.307 Y104.944 E4.27368
G1 X129.307 Y118.056 E5.84712
G1 X93.693 Y118.056 E10.12080
G1 X93.693 Y104.944 E11.69424
G0 F9000 X94.093 Y105.344
G1 F1200 X128.907 Y105.344 E15.87192
G1 X128.907 Y117.656 E17.34936
G1 X94.093 Y117.656 E21.52704
G1 X94.093 Y105.344 E23.00448
G10
G0 F9000 X98.033 Y112.175
;TYPE:FILL
G11
G1 F1200 X98.178 Y112.321 E23.02917
G0 F9000 X98.378 Y109.380
G0 X124.622 Y109.380
G0 X124.820 Y110.678
G1 F1200 X124.966 Y110.824 E23.05395
G0 F9000 X124.820 Y109.938
G1 F1200 X124.966 Y109.793 E23.07864
G0 F9000 X124.681 Y109.321
;TYPE:WALL-INNER
G1 F1200 X98.319 Y109.321 E26.24208
G1 X98.319 Y113.679 E26.76504
G1 X124.681 Y113.679 E29.92848
G1 X124.681 Y109.321 E30.45144
G0 F9000 X125.107 Y109.144
G1 F1200 X125.107 Y113.856 E31.01688
G1 X97.893 Y113.856 E34.28256
G1 X97.893 Y109.144 E34.84800
G1 X125.107 Y109.144 E38.11368
G0 F9000 X125.507 Y108.744
;TYPE:WALL-OUTER
G1 F1200 X125.507 Y114.256 E38.77512
G1 X97.493 Y114.256 E42.13680
G1 X97.493 Y108.744 E42.79824
G1 X125.507 Y108.744 E46.15992
G0 F9000 X125.207 Y108.954
G0 X124.281 Y109.421
G0 X124.281 Y109.721
G1 F1200 X98.719 Y109.721 E49.22736
G1 X98.719 Y113.279 E49.65432
G1 X124.281 Y113.279 E52.72176
G1 X124.281 Y109.721 E53.14872
;LAYER:1
M106 S63
G0 F9000 X124.820 Y109.938 Z0.360
;TYPE:FILL
G1 F2100 X124.966 Y109.793 E53.15366
G0 F9000 X124.820 Y110.678
G1 F2100 X124.966 Y110.824 E53.15862
G0 F9000 X124.622 Y113.620
G0 X98.378 Y113.620
G0 X98.178 Y112.321
G1 F2100 X98.033 Y112.175 E53.16355
G0 F9000 X98.319 Y113.679
;TYPE:WALL-INNER
G1 F1800 X124.681 Y113.679 E53.79624
G1 X124.681 Y109.321 E53.90083
G1 X98.319 Y109.321 E54.53352
G1 X98.319 Y113.679 E54.63811
G0 F9000 X97.893 Y113.856
G1 F1800 X97.893 Y109.144 E54.75120
G1 X125.107 Y109.144 E55.40434
G1 X125.107 Y113.856 E55.51743
G1 X97.893 Y113.856 E56.17056
G0 F9000 X97.493 Y114.256
;TYPE:WALL-OUTER
G1 F1320 X97.493 Y108.744 E56.30285
G1 X125.507 Y108.744 E56.97519
G1 X125.507 Y114.256 E57.10747
G1 X97.493 Y114.256 E57.77981
G0 F9000 X97.703 Y113.956
G0 X98.419 Y113.279
G0 X98.719 Y113.279
G1 F1320 X124.281 Y113.279 E58.39330
G1 X124.281 Y109.721 E58.47869
G1 X98.719 Y109.721 E59.09218
G1 X98.719 Y113.279 E59.17757
G0 F9000 X98.493 Y113.279
;LAYER:2
M106 S127
G0 X98.178 Y112.321 Z0.420
;TYPE:FILL
G1 F3000 X98.033 Y112.175 E59.18251
G0 F9000 X98.378 Y109.380
G0 X124.622 Y109.380
G0 X124.820 Y110.678
G1 F3000 X124.966 Y110.824 E59.18746
G0 F9000 X124.820 Y109.938
G1 F3000 X124.966 Y109.793 E59.19240
G0 F9000 X124.681 Y109.321
;TYPE:WALL-INNER
G1 F2400 X98.319 Y109.321 E59.82509
G1 X98.319 Y113.679 E59.92968
G1 X124.681 Y113.679 E60.56237
G1 X124.681 Y109.321 E60.66696
G0 F9000 X125.107 Y109.144
G1 F2400 X125.107 Y113.856 E60.78005
G1 X97.893 Y113.856 E61.43319
G1 X97.893 Y109.144 E61.54627
G1 X125.107 Y109.144 E62.19941
G0 F9000 X125.507 Y108.744
;TYPE:WALL-OUTER
G1 F1500 X125.507 Y114.256 E62.33170
G1 X97.493 Y114.256 E63.00403
G1 X97.493 Y108.744 E63.13632
G1 X125.507 Y108.744 E63.80866
G0 F9000 X125.207 Y108.954
G0 X124.281 Y109.421
G0 X124.281 Y109.721
G1 F1500 X98.719 Y109.721 E64.42215
G1 X98.719 Y113.279 E64.50754
G1 X124.281 Y113.279 E65.12103
G1 X124.281 Y109.721 E65.20642
;LAYER:3
M106 S191
G0 F9000 X124.820 Y109.938 Z0.480
;TYPE:FILL
G1 F3900 X124.966 Y109.793 E65.21136
G0 F9000 X124.820 Y110.678
G1 F3900 X124.966 Y110.824 E65.21631
G0 F9000 X124.622 Y113.620
G0 X98.378 Y113.620
G0 X98.178 Y112.321
G1 F3900 X98.033 Y112.175 E65.22125
G0 F9000 X98.319 Y113.679
;TYPE:WALL-INNER
G1 F3000 X124.681 Y113.679 E65.85394
G1 X124.681 Y109.321 E65.95853
G1 X98.319 Y109.321 E66.59122
G1 X98.319 Y113.679 E66.69581
G0 F9000 X97.893 Y113.856
G1 F3000 X97.893 Y109.144 E66.80890
G1 X125.107 Y109.144 E67.46203
G1 X125.107 Y113.856 E67.57512
G1 X97.893 Y113.856 E68.22826
G0 F9000 X97.493 Y114.256
;TYPE:WALL-OUTER
G1 F1620 X97.493 Y108.744 E68.36055
G1 X125.507 Y108.744 E69.03288
G1 X125.507 Y114.256 E69.16517
G1 X97.493 Y114.256 E69.83751
G0 F9000 X97.703 Y113.956
G0 X98.419 Y113.279
G0 X98.719 Y113.279
G1 F1620 X124.281 Y113.279 E70.45099
G1 X124.281 Y109.721 E70.53639
G1 X98.719 Y109.721 E71.14987
G1 X98.719 Y113.279 E71.23527
G0 F9000 X98.493 Y113.279
;LAYER:4
M106 S255
G0 X98.178 Y112.321 Z0.540
;TYPE:FILL
G1 F4800 X98.033 Y112.175 E71.24021
G0 F9000 X98.378 Y109.380
G0 X124.622 Y109.380
G0 X124.820 Y110.678
G1 F4800 X124.966 Y110.824 E71.24516
G0 F9000 X124.820 Y109.938
G1 F4800 X124.966 Y109.793 E71.25010
G0 F9000 X124.681 Y109.321
;TYPE:WALL-INNER
G1 F3600 X98.319 Y109.321 E71.88279
G1 X98.319 Y113.679 E71.98738
G1 X124.681 Y113.679 E72.62007
G1 X124.681 Y109.321 E72.72466
G0 F9000 X125.107 Y109.144
G1 F3600 X125.107 Y113.856 E72.83775
G1 X97.893 Y113.856 E73.49088
G1 X97.893 Y109.144 E73.60397
G1 X125.107 Y109.144 E74.25711
G0 F9000 X125.507 Y108.744
;TYPE:WALL-OUTER
G1 F1800 X125.507 Y114.256 E74.38939
G1 X97.493 Y114.256 E75.06173
G1 X97.493 Y108.744 E75.19402
G1 X125.507 Y108.744 E75.86635
G0 F9000 X125.207 Y108.954
G0 X124.281 Y109.421
G0 X124.281 Y109.721
G1 F1800 X98.719 Y109.721 E76.47984
G1 X98.719 Y113.279 E76.56523
G1 X124.281 Y113.279 E77.17872
G1 X124.281 Y109.721 E77.26411
;LAYER:5
G0 F9000 X124.820 Y109.938 Z0.600
;TYPE:FILL
G1 F4800 X124.966 Y109.793 E77.26905
G0 F9000 X124.820 Y110.678
G1 F4800 X124.966 Y110.824 E77.27401
G0 F9000 X124.622 Y113.620
G0 X98.378 Y113.620
G0 X98.178 Y112.321
G1 F4800 X98.033 Y112.175 E77.27895
G0 F9000 X98.319 Y113.679
;TYPE:WALL-INNER
G1 F3600 X124.681 Y113.679 E77.91164
G1 X124.681 Y109.321 E78.01623
G1 X98.319 Y109.321 E78.64892
G1 X98.319 Y113.679 E78.75351
G0 F9000 X97.893 Y113.856
G1 F3600 X97.893 Y109.144 E78.86660
G1 X125.107 Y109.144 E79.51973
G1 X125.107 Y113.856 E79.63282
G1 X97.893 Y113.856 E80.28596
G0 F9000 X97.493 Y114.256
;TYPE:WALL-OUTER
G1 F1800 X97.493 Y108.744 E80.41824
G1 X125.507 Y108.744 E81.09058
G1 X125.507 Y114.256 E81.22287
G1 X97.493 Y114.256 E81.89520
G0 F9000 X97.703 Y113.956
G0 X98.419 Y113.279
G0 X98.719 Y113.279
G1 F1800 X124.281 Y113.279 E82.50869
G1 X124.281 Y109.721 E82.59408
G1 X98.719 Y109.721 E83.20757
G1 X98.719 Y113.279 E83.29296
G0 F9000 X98.493 Y113.279
;LAYER:6
G0 X98.178 Y112.321 Z0.660
;TYPE:FILL
G1 F4800 X98.033 Y112.175 E83.29790
G0 F9000 X98.378 Y109.380
G0 X124.622 Y109.380
G0 X124.820 Y110.678
G1 F4800 X124.966 Y110.824 E83.30286
G0 F9000 X124.820 Y109.938
G1 F4800 X124.966 Y109.793 E83.30780
G0 F9000 X124.681 Y109.321
;TYPE:WALL-INNER
G1 F3600 X98.319 Y109.321 E83.94048
G1 X98.319 Y113.679 E84.04508
G1 X124.681 Y113.679 E84.67776
G1 X124.681 Y109.321 E84.78236
G0 F9000 X125.107 Y109.144
G1 F3600 X125.107 Y113.856 E84.89544
G1 X97.893 Y113.856 E85.54858
G1 X97.893 Y109.144 E85.66167
G1 X125.107 Y109.144 E86.31480
G0 F9000 X125.507 Y108.744
;TYPE:WALL-OUTER
G1 F1800 X125.507 Y114.256 E86.44709
G1 X97.493 Y114.256 E87.11943
G1 X97.493 Y108.744 E87.25172
G1 X125.507 Y108.744 E87.92405
G0 F9000 X125.207 Y108.954
G0 X124.281 Y109.421
G0 X124.281 Y109.721
G1 F1800 X98.719 Y109.721 E88.53754
G1 X98.719 Y113.279 E88.62293
G1 X124.281 Y113.279 E89.23642
G1 X124.281 Y109.721 E89.32181
;LAYER:7
G0 F9000 X124.820 Y109.938 Z0.720
;TYPE:FILL
G1 F4800 X124.966 Y109.793 E89.32675
G0 F9000 X124.820 Y110.678
G1 F4800 X124.966 Y110.824 E89.33171
G0 F9000 X124.622 Y113.620
G0 X98.378 Y113.620
G0 X98.178 Y112.321
G1 F4800 X98.033 Y112.175 E89.33664
G0 F9000 X98.319 Y113.679
;TYPE:WALL-INNER
G1 F3600 X124.681 Y113.679 E89.96933
G1 X124.681 Y109.321 E90.07392
G1 X98.319 Y109.321 E90.70661
G1 X98.319 Y113.679 E90.81120
G0 F9000 X97.893 Y113.856
G1 F3600 X97.893 Y109.144 E90.92429
G1 X125.107 Y109.144 E91.57743
G1 X125.107 Y113.856 E91.69052
G1 X97.893 Y113.856 E92.34365
G0 F9000 X97.493 Y114.256
;TYPE:WALL-OUTER
G1 F1800 X97.493 Y108.744 E92.47594
G1 X125.507 Y108.744 E93.14828
G1 X125.507 Y114.256 E93.28056
G1 X97.493 Y114.256 E93.95290
G0 F9000 X97.703 Y113.956
G0 X98.419 Y113.279
G0 X98.719 Y113.279
G1 F1800 X124.281 Y113.279 E94.56639
G1 X124.281 Y109.721 E94.65178
G1 X98.719 Y109.721 E95.26527
G1 X98.719 Y113.279 E95.35066
G0 F9000 X98.493 Y113.279
;LAYER:8
G0 X98.178 Y112.321 Z0.780
;TYPE:FILL
G1 F4800 X98.033 Y112.175 E95.35560
G0 F9000 X98.378 Y109.380
G0 X124.622 Y109.380
G0 X124.820 Y110.678
G1 F4800 X124.966 Y110.824 E95.36055
G0 F9000 X124.820 Y109.938
G1 F4800 X124.966 Y109.793 E95.36549
G0 F9000 X124.681 Y109.321
;TYPE:WALL-INNER
G1 F3600 X98.319 Y109.321 E95.99818
G1 X98.319 Y113.679 E96.10277
G1 X124.681 Y113.679 E96.73546
G1 X124.681 Y109.321 E96.84005
G0 F9000 X125.107 Y109.144
G1 F3600 X125.107 Y113.856 E96.95314
G1 X97.893 Y113.856 E97.60628
G1 X97.893 Y109.144 E97.71936
G1 X125.107 Y109.144 E98.37250
G0 F9000 X125.507 Y108.744
;TYPE:WALL-OUTER
G1 F1800 X125.507 Y114.256 E98.50479
G1 X97.493 Y114.256 E99.17712
G1 X97.493 Y108.744 E99.30941
G1 X125.507 Y108.744 E99.98175
G0 F9000 X125.207 Y108.954
G0 X124.281 Y109.421
G0 X124.281 Y109.721
G1 F1800 X98.719 Y109.721 E100.59524
G1 X98.719 Y113.279 E100.68063
G1 X124.281 Y113.279 E101.29412
G1 X124.281 Y109.721 E101.37951
;LAYER:9
G0 F9000 X124.820 Y109.938 Z0.840
;TYPE:FILL
G1 F4800 X124.966 Y109.793 E101.38445
G0 F9000 X124.820 Y110.678
G1 F4800 X124.966 Y110.824 E101.38940
G0 F9000 X124.622 Y113.620
G0 X98.378 Y113.620
G0 X98.178 Y112.321
G1 F4800 X98.033 Y112.175 E101.39434
G0 F9000 X98.319 Y113.679
;TYPE:WALL-INNER
G1 F3600 X124.681 Y113.679 E102.02703
G1 X124.681 Y109.321 E102.13162
G1 X98.319 Y109.321 E102.76431
G1 X98.319 Y113.679 E102.86890
G0 F9000 X97.893 Y113.856
G1 F3600 X97.893 Y109.144 E102.98199
G1 X125.107 Y109.144 E103.63512
G1 X125.107 Y113.856 E103.74821
G1 X97.893 Y113.856 E104.40135
G0 F9000 X97.493 Y114.256
;TYPE:WALL-OUTER
G1 F1800 X97.493 Y108.744 E104.53364
G1 X125.507 Y108.744 E105.20597
G1 X125.507 Y114.256 E105.33826
G1 X97.493 Y114.256 E106.01060
G0 F9000 X97.703 Y113.956
G0 X98.419 Y113.279
G0 X98.719 Y113.279
G1 F1800 X124.281 Y113.279 E106.62408
G1 X124.281 Y109.721 E106.70948
G1 X98.719 Y109.721 E107.32296
G1 X98.719 Y113.279 E107.40836
G0 F9000 X98.493 Y113.279
;LAYER:10
G0 X98.178 Y112.321 Z0.900
;TYPE:FILL
G1 F4800 X98.033 Y112.175 E107.41330
G0 F9000 X98.378 Y109.380
G0 X124.622 Y109.380
G0 X124.820 Y110.678
G1 F4800 X124.966 Y110.824 E107.41825
G0 F9000 X124.820 Y109.938
G1 F4800 X124.966 Y109.793 E107.42319
G0 F9000 X124.681 Y109.321
;TYPE:WALL-INNER
G1 F3600 X98.319 Y109.321 E108.05588
G1 X98.319 Y113.679 E108.16047
G1 X124.681 Y113.679 E108.79316
G1 X124.681 Y109.321 E108.89775
G0 F9000 X125.107 Y109.144
G1 F3600 X125.107 Y113.856 E109.01084
G1 X97.893 Y113.856 E109.66397
G1 X97.893 Y109.144 E109.77706
G1 X125.107 Y109.144 E110.43020
G0 F9000 X125.507 Y108.744
;TYPE:WALL-OUTER
G1 F1800 X125.507 Y114.256 E110.56248
G1 X97.493 Y114.256 E111.23482
G1 X97.493 Y108.744 E111.36711
G1 X125.507 Y108.744 E112.03944
G0 F9000 X125.207 Y108.954
G0 X124.281 Y109.421
G0 X124.281 Y109.721
G1 F1800 X98.719 Y109.721 E112.65293
G1 X98.719 Y113.279 E112.73832
G1 X124.281 Y113.279 E113.35181
G1 X124.281 Y109.721 E113.43720
;LAYER:11
G0 F9000 X124.820 Y109.938 Z0.960
;TYPE:FILL
G1 F4800 X124.966 Y109.793 E113.44214
G0 F9000 X124.820 Y110.678
G1 F4800 X124.966 Y110.824 E113.44710
G0 F9000 X124.622 Y113.620
G0 X98.378 Y113.620
G0 X98.178 Y112.321
G1 F4800 X98.033 Y112.175 E113.45204
G0 F9000 X98.319 Y113.679
;TYPE:WALL-INNER
G1 F3600 X124.681 Y113.679 E114.08473
G1 X124.681 Y109.321 E114.18932
G1 X98.319 Y109.321 E114.82201
G1 X98.319 Y113.679 E114.92660
G0 F9000 X97.893 Y113.856
G1 F3600 X97.893 Y109.144 E115.03969
G1 X125.107 Y109.144 E115.69282
G1 X125.107 Y113.856 E115.80591
G1 X97.893 Y113.856 E116.45905
G0 F9000 X97.493 Y114.256
;TYPE:WALL-OUTER
G1 F1800 X97.493 Y108.744 E116.59133
G1 X125.507 Y108.744 E117.26367
G1 X125.507 Y114.256 E117.39596
G1 X97.493 Y114.256 E118.06829
G0 F9000 X97.703 Y113.956
G0 X98.419 Y113.279
G0 X98.719 Y113.279
G1 F1800 X124.281 Y113.279 E118.68178
G1 X124.281 Y109.721 E118.76717
G1 X98.719 Y109.721 E119.38066
G1 X98.719 Y113.279 E119.46605
G0 F9000 X98.493 Y113.279
;LAYER:12
G0 X98.178 Y112.321 Z1.020
;TYPE:FILL
G1 F4800 X98.033 Y112.175 E119.47099
G0 F9000 X98.378 Y109.380
G0 X124.622 Y109.380
G0 X124.820 Y110.678
G1 F4800 X124.966 Y110.824 E119.47595
G0 F9000 X124.820 Y109.938
G1 F4800 X124.966 Y109.793 E119.48089
G0 F9000 X124.681 Y109.321
;TYPE:WALL-INNER
G1 F3600 X98.319 Y109.321 E120.11357
G1 X98.319 Y113.679 E120.21817
G1 X124.681 Y113.679 E120.85085
G1 X124.681 Y109.321 E120.95545
G0 F9000 X125.107 Y109.144
G1 F3600 X125.107 Y113.856 E121.06853
G1 X97.893 Y113.856 E121.72167
G1 X97.893 Y109.144 E121.83476
G1 X125.107 Y109.144 E122.48789
G0 F9000 X125.507 Y108.744
;TYPE:WALL-OUTER
G1 F1800 X125.507 Y114.256 E122.62018
G1 X97.493 Y114.256 E123.29252
G1 X97.493 Y108.744 E123.42481
G1 X125.507 Y108.744 E124.09714
G0 F9000 X125.207 Y108.954
G0 X124.281 Y109.421
G0 X124.281 Y109.721
G1 F1800 X98.719 Y109.721 E124.71063
G1 X98.719 Y113.279 E124.79602
G1 X124.281 Y113.279 E125.40951
G1 X124.281 Y109.721 E125.49490
;LAYER:13
G0 F9000 X124.820 Y109.938 Z1.080
;TYPE:FILL
G1 F4800 X124.966 Y109.793 E125.49984
G0 F9000 X124.820 Y110.678
G1 F4800 X124.966 Y110.824 E125.50480
G0 F9000 X124.622 Y113.620
G0 X98.378 Y113.620
G0 X98.178 Y112.321
G1 F4800 X98.033 Y112.175 E125.50973
G0 F9000 X98.319 Y113.679
;TYPE:WALL-INNER
G1 F3600 X124.681 Y113.679 E126.14242
G1 X124.681 Y109.321 E126.24701
G1 X98.319 Y109.321 E126.87970
G1 X98.319 Y113.679 E126.98429
G0 F9000 X97.893 Y113.856
G1 F3600 X97.893 Y109.144 E127.09738
G1 X125.107 Y109.144 E127.75052
G1 X125.107 Y113.856 E127.86361
G1 X97.893 Y113.856 E128.51674
G0 F9000 X97.493 Y114.256
;TYPE:WALL-OUTER
G1 F1800 X97.493 Y108.744 E128.64903
G1 X125.507 Y108.744 E129.32137
G1 X125.507 Y114.256 E129.45365
G1 X97.493 Y114.256 E130.12599
G0 F9000 X97.703 Y113.956
G0 X98.419 Y113.279
G0 X98.719 Y113.279
G1 F1800 X124.281 Y113.279 E130.73948
G1 X124.281 Y109.721 E130.82487
G1 X98.719 Y109.721 E131.43836
G1 X98.719 Y113.279 E131.52375
G0 F9000 X98.493 Y113.279
;LAYER:14
G0 X98.178 Y112.321 Z1.140
;TYPE:FILL
G1 F4800 X98.033 Y112.175 E131.52869
G0 F9000 X98.378 Y109.380
G0 X124.622 Y109.380
G0 X124.820 Y110.678
G1 F4800 X124.966 Y110.824 E131.53364
G0 F9000 X124.820 Y109.938
G1 F4800 X124.966 Y109.793 E131.53858
G0 F9000 X124.681 Y109.321
;TYPE:WALL-INNER
G1 F3600 X98.319 Y109.321 E132.17127
G1 X98.319 Y113.679 E132.27586
G1 X124.681 Y113.679 E132.90855
G1 X124.681 Y109.321 E133.01314
G0 F9000 X125.107 Y109.144
G1 F3600 X125.107 Y113.856 E133.12623
G1 X97.893 Y113.856 E133.77937
G1 X97.893 Y109.144 E133.89245
G1 X125.107 Y109.144 E134.54559
G0 F9000 X125.507 Y108.744
;TYPE:WALL-OUTER
G1 F1800 X125.507 Y114.256 E134.67788
G1 X97.493 Y114.256 E135.35021
G1 X97.493 Y108.744 E135.48250
G1 X125.507 Y108.744 E136.15484
G0 F9000 X125.207 Y108.954
G0 X124.281 Y109.421
G0 X124.281 Y109.721
G1 F1800 X98.719 Y109.721 E136.76833
G1 X98.719 Y113.279 E136.85372
G1 X124.281 Y113.279 E137.46721
G1 X124.281 Y109.721 E137.55260
;LAYER:15
G0 F9000 X124.820 Y109.938 Z1.200
;TYPE:FILL
G1 F4800 X124.966 Y109.793 E137.55754
G0 F9000 X124.820 Y110.678
G1 F4800 X124.966 Y110.824 E137.56249
G0 F9000 X124.622 Y113.620
G0 X98.378 Y113.620
G0 X98.178 Y112.321
G1 F4800 X98.033 Y112.175 E137.56743
G0 F9000 X98.319 Y113.679
;TYPE:WALL-INNER
G1 F3600 X124.681 Y113.679 E138.20012
G1 X124.681 Y109.321 E138.30471
G1 X98.319 Y109.321 E138.93740
G1 X98.319 Y113.679 E139.04199
G0 F9000 X97.893 Y113.856
G1 F3600 X97.893 Y109.144 E139.15508
G1 X125.107 Y109.144 E139.80821
G1 X125.107 Y113.856 E139.92130
G1 X97.893 Y113.856 E140.57444
G0 F9000 X97.493 Y114.256
;TYPE:WALL-OUTER
G1 F1800 X97.493 Y108.744 E140.70673
G1 X125.507 Y108.744 E141.37906
G1 X125.507 Y114.256 E141.51135
G1 X97.493 Y114.256 E142.18369
G0 F9000 X97.703 Y113.956
G0 X98.419 Y113.279
G0 X98.719 Y113.279
G1 F1800 X124.281 Y113.279 E142.79717
G1 X124.281 Y109.721 E142.88257
G1 X98.719 Y109.721 E143.49605
G1 X98.719 Y113.279 E143.58145
