;FLAVOR:UltiGCode
;TIME:1007
;MATERIAL:2137
;MATERIAL2:0
;NOZZLE_DIAMETER:0.000000
;NOZZLE_DIAMETER2:0.000000

;Layer count: 167
;LAYER:0
M107
G0 F9000 X93.543 Y104.794 Z0.300
;TYPE:SKIRT
G1 F1800 X129.457 Y104.794 E5.38710
G1 X129.457 Y118.206 E7.39890
G1 X93.543 Y118.206 E12.78600
G1 X93.543 Y104.794 E14.79780
G0 F9000 X94.043 Y105.294
G1 F1800 X128.957 Y105.294 E20.03490
G1 X128.957 Y117.706 E21.89670
G1 X94.043 Y117.706 E27.13380
G1 X94.043 Y105.294 E28.99560
G10
G0 F9000 X98.043 Y109.294
;TYPE:WALL-INNER
G11
G1 F1800 X98.169 Y109.294 E29.01450
G1 X98.169 Y113.706 E29.67630
G1 X98.043 Y113.706 E29.69520
G1 X98.043 Y109.294 E30.35700
G0 F9000 X124.831 Y109.294
G1 F1800 X124.957 Y109.294 E30.37590
G1 X124.957 Y113.706 E31.03770
G1 X124.831 Y113.706 E31.05660
G1 X124.831 Y109.294 E31.71840
G0 F9000 X124.331 Y109.671
;TYPE:WALL-OUTER
G1 F1800 X98.669 Y109.671 E35.56770
G1 X98.669 Y113.329 E36.11640
G1 X124.331 Y113.329 E39.96570
G1 X124.331 Y109.671 E40.51440
G0 F9000 X125.457 Y108.794
G1 F1800 X125.457 Y114.206 E41.32620
G1 X97.543 Y114.206 E45.51330
G1 X97.543 Y108.794 E46.32510
G1 X125.457 Y108.794 E50.51220
G0 F9000 X124.605 Y109.402
;TYPE:SKIN
G1 F1800 X124.081 Y109.232 E50.58822
G1 X123.374 Y109.232 E50.66776
G1 X122.667 Y109.232 E50.74751
G1 X121.959 Y109.232 E50.82716
G1 X121.252 Y109.232 E50.90670
G1 X120.545 Y109.232 E50.98623
G1 X120.004 Y109.044 E51.07214
G0 F9000 X124.722 Y109.280
G0 X124.722 Y113.720
G0 X120.296 Y113.679
G0 X120.296 Y113.579
G1 F1800 X120.837 Y113.767 E51.15187
G1 X121.544 Y113.767 E51.23141
G1 X122.251 Y113.767 E51.31094
G1 X122.959 Y113.767 E51.39059
G1 X123.666 Y113.767 E51.47034
G1 X124.208 Y113.955 E51.55640
G0 F9000 X119.965 Y113.955
G1 F1800 X119.423 Y113.767 E51.63608
G1 X118.716 Y113.767 E51.71562
G1 X118.009 Y113.767 E51.79515
G1 X117.302 Y113.767 E51.87469
G1 X116.595 Y113.767 E51.95423
G1 X115.887 Y113.767 E52.03388
G1 X115.180 Y113.767 E52.11342
G1 X114.473 Y113.767 E52.19295
G1 X113.766 Y113.767 E52.27249
G1 X113.059 Y113.767 E52.35203
G1 X112.352 Y113.767 E52.43157
G1 X111.645 Y113.767 E52.51110
G1 X110.938 Y113.767 E52.59064
G1 X110.231 Y113.767 E52.67018
G1 X109.524 Y113.767 E52.74993
G1 X108.816 Y113.767 E52.82958
G1 X108.109 Y113.767 E52.90912
G1 X107.402 Y113.767 E52.98865
G1 X106.695 Y113.767 E53.06819
G1 X105.988 Y113.767 E53.14773
G1 X105.281 Y113.767 E53.22727
G1 X104.574 Y113.767 E53.30680
G1 X103.867 Y113.767 E53.38634
G1 X103.160 Y113.767 E53.46609
G1 X102.452 Y113.767 E53.54574
G1 X101.745 Y113.767 E53.62528
G1 X101.038 Y113.767 E53.70482
G1 X100.331 Y113.767 E53.78435
G1 X99.624 Y113.767 E53.86389
G1 X98.917 Y113.767 E53.94343
G1 X98.393 Y113.596 E54.02611
G0 F9000 X98.278 Y109.280
G0 X99.167 Y109.420
G1 F1800 X99.143 Y109.043 E54.10612
G1 X100.039 Y109.231 E54.18604
G1 X100.746 Y109.231 E54.26579
G1 X101.453 Y109.231 E54.34554
G1 X102.160 Y109.231 E54.42529
G1 X102.868 Y109.231 E54.50515
G1 X103.575 Y109.231 E54.58490
G1 X104.282 Y109.231 E54.66465
G1 X104.989 Y109.231 E54.74440
G1 X105.696 Y109.231 E54.82415
G1 X106.403 Y109.231 E54.90390
G1 X107.110 Y109.231 E54.98365
G1 X107.817 Y109.231 E55.06340
G1 X108.524 Y109.231 E55.14315
G1 X109.231 Y109.231 E55.22290
G1 X109.939 Y109.231 E55.30276
G1 X110.646 Y109.231 E55.38251
G1 X111.353 Y109.232 E55.46226
G1 X112.060 Y109.232 E55.54180
G1 X112.767 Y109.232 E55.62134
G1 X113.474 Y109.232 E55.70087
G1 X114.181 Y109.232 E55.78041
G1 X114.888 Y109.232 E55.85995
G1 X115.595 Y109.232 E55.93949
G1 X116.303 Y109.232 E56.01914
G1 X117.010 Y109.232 E56.09889
G1 X117.717 Y109.232 E56.17842
G1 X118.424 Y109.232 E56.25796
G1 X119.131 Y109.232 E56.33750
G1 X119.673 Y109.420 E56.42355
;LAYER:1
M106 S127
G0 F9000 X124.831 Y109.294 Z0.450
;TYPE:WALL-INNER
G1 F2520 X124.957 Y109.294 E56.43300
G1 X124.957 Y113.706 E56.76390
G1 X124.831 Y113.706 E56.77335
G1 X124.831 Y109.294 E57.10425
G0 F9000 X98.169 Y109.294
G1 F2520 X98.169 Y113.706 E57.43515
G1 X98.043 Y113.706 E57.44460
G1 X98.043 Y109.294 E57.77550
G1 X98.169 Y109.294 E57.78495
G0 F9000 X98.669 Y109.671
;TYPE:WALL-OUTER
G1 F1920 X98.669 Y113.329 E58.05930
G1 X124.331 Y113.329 E59.98395
G1 X124.331 Y109.671 E60.25830
G1 X98.669 Y109.671 E62.18295
G0 F9000 X97.543 Y108.794
G1 F1920 X125.457 Y108.794 E64.27650
G1 X125.457 Y114.206 E64.68240
G1 X97.543 Y114.206 E66.77595
G1 X97.543 Y108.794 E67.18185
G0 F9000 X98.393 Y109.141
;TYPE:SKIN
G1 F1740 X98.656 Y109.231 E67.19236
G1 X99.364 Y109.231 E67.23240
G1 X99.907 Y109.042 E67.27552
G0 F9000 X99.907 Y109.144
G0 X124.722 Y109.280
G0 X124.722 Y113.720
G0 X99.614 Y113.679
G0 X99.614 Y113.578
G1 F1740 X99.071 Y113.766 E67.31551
G1 X98.529 Y113.955 E67.35856
G0 F9000 X99.943 Y113.955
G1 F1740 X100.485 Y113.766 E67.39851
G1 X101.193 Y113.766 E67.43844
G1 X101.900 Y113.766 E67.47832
G1 X102.607 Y113.766 E67.51819
G1 X103.314 Y113.766 E67.55807
G1 X104.021 Y113.766 E67.59794
G1 X104.728 Y113.766 E67.63782
G1 X105.435 Y113.766 E67.67769
G1 X106.142 Y113.766 E67.71757
G1 X106.849 Y113.766 E67.75744
G1 X107.557 Y113.766 E67.79737
G1 X108.264 Y113.766 E67.83725
G1 X108.971 Y113.766 E67.87712
G1 X109.678 Y113.766 E67.91700
G1 X110.385 Y113.766 E67.95687
G1 X111.092 Y113.766 E67.99675
G1 X111.799 Y113.766 E68.03662
G1 X112.506 Y113.766 E68.07650
G1 X113.213 Y113.766 E68.11637
G1 X113.921 Y113.766 E68.15630
G1 X114.628 Y113.766 E68.19618
G1 X115.335 Y113.766 E68.23605
G1 X116.042 Y113.766 E68.27593
G1 X116.749 Y113.766 E68.31580
G1 X117.456 Y113.766 E68.35568
G1 X118.163 Y113.766 E68.39555
G1 X118.870 Y113.766 E68.43543
G1 X119.577 Y113.766 E68.47530
G1 X120.284 Y113.766 E68.51518
G1 X120.992 Y113.766 E68.55511
G1 X121.699 Y113.766 E68.59498
G1 X122.406 Y113.766 E68.63486
G1 X123.113 Y113.766 E68.67473
G1 X123.820 Y113.766 E68.71461
G1 X124.363 Y113.578 E68.75770
G0 F9000 X124.363 Y113.679
G0 X98.278 Y113.720
G0 X98.278 Y109.280
G0 X124.272 Y109.220
G0 X124.277 Y109.421
G1 F1740 X124.276 Y109.068 E68.79239
G1 X123.405 Y109.232 E68.83240
G1 X122.698 Y109.232 E68.87228
G1 X121.991 Y109.232 E68.91215
G1 X121.284 Y109.232 E68.95203
G1 X120.577 Y109.232 E68.99190
G1 X119.869 Y109.232 E69.03194
G1 X119.162 Y109.232 E69.07192
G1 X118.455 Y109.232 E69.11190
G1 X117.748 Y109.232 E69.15188
G1 X117.041 Y109.232 E69.19186
G1 X116.334 Y109.232 E69.23174
G1 X115.627 Y109.232 E69.27161
G1 X114.920 Y109.232 E69.31149
G1 X114.213 Y109.232 E69.35136
G1 X113.505 Y109.232 E69.39140
G1 X112.798 Y109.232 E69.43138
G1 X112.091 Y109.232 E69.47136
G1 X111.384 Y109.231 E69.51134
G1 X110.677 Y109.231 E69.55143
G1 X109.970 Y109.231 E69.59152
G1 X109.263 Y109.231 E69.63160
G1 X108.556 Y109.231 E69.67169
G1 X107.849 Y109.231 E69.71178
G1 X107.142 Y109.231 E69.75186
G1 X106.435 Y109.231 E69.79195
G1 X105.727 Y109.231 E69.83199
G1 X105.020 Y109.231 E69.87207
G1 X104.313 Y109.231 E69.91216
G1 X103.606 Y109.231 E69.95225
G1 X102.899 Y109.231 E69.99234
G1 X102.192 Y109.231 E70.03242
G1 X101.485 Y109.231 E70.07251
G1 X100.778 Y109.231 E70.11260
G1 X100.235 Y109.421 E70.15574
;LAYER:2
M106 S255
G0 F9000 X98.169 Y109.294 Z0.600
;TYPE:WALL-INNER
G1 F3300 X98.169 Y113.706 E70.48664
G1 X98.043 Y113.706 E70.49609
G1 X98.043 Y109.294 E70.82699
G1 X98.169 Y109.294 E70.83644
G0 F9000 X124.831 Y109.294
G1 F3300 X124.957 Y109.294 E70.84589
G1 X124.957 Y113.706 E71.17679
G1 X124.831 Y113.706 E71.18624
G1 X124.831 Y109.294 E71.51714
G0 F9000 X124.331 Y109.671
;TYPE:WALL-OUTER
G1 F2100 X98.669 Y109.671 E73.44179
G1 X98.669 Y113.329 E73.71614
G1 X124.331 Y113.329 E75.64079
G1 X124.331 Y109.671 E75.91514
G0 F9000 X125.457 Y108.794
G1 F2100 X125.457 Y114.206 E76.32104
G1 X97.543 Y114.206 E78.41459
G1 X97.543 Y108.794 E78.82049
G1 X125.457 Y108.794 E80.91404
G0 F9000 X124.605 Y109.402
;TYPE:SKIN
G1 F1800 X124.081 Y109.232 E80.95205
G1 X123.374 Y109.232 E80.99182
G1 X122.667 Y109.232 E81.03170
G1 X121.959 Y109.232 E81.07152
G1 X121.252 Y109.232 E81.11129
G1 X120.545 Y109.232 E81.15106
G1 X120.004 Y109.044 E81.19401
G0 F9000 X124.722 Y109.280
G0 X124.722 Y113.720
G0 X120.296 Y113.679
G0 X120.296 Y113.579
G1 F1800 X120.837 Y113.767 E81.23388
G1 X121.544 Y113.767 E81.27365
G1 X122.251 Y113.767 E81.31341
G1 X122.959 Y113.767 E81.35324
G1 X123.666 Y113.767 E81.39311
G1 X124.208 Y113.955 E81.43614
G0 F9000 X119.965 Y113.955
G1 F1800 X119.423 Y113.767 E81.47598
G1 X118.716 Y113.767 E81.51575
G1 X118.009 Y113.767 E81.55552
G1 X117.302 Y113.767 E81.59529
G1 X116.595 Y113.767 E81.63506
G1 X115.887 Y113.767 E81.67488
G1 X115.180 Y113.767 E81.71465
G1 X114.473 Y113.767 E81.75442
G1 X113.766 Y113.767 E81.79419
G1 X113.059 Y113.767 E81.83396
G1 X112.352 Y113.767 E81.87373
G1 X111.645 Y113.767 E81.91349
G1 X110.938 Y113.767 E81.95326
G1 X110.231 Y113.767 E81.99303
G1 X109.524 Y113.767 E82.03291
G1 X108.816 Y113.767 E82.07273
G1 X108.109 Y113.767 E82.11250
G1 X107.402 Y113.767 E82.15227
G1 X106.695 Y113.767 E82.19204
G1 X105.988 Y113.767 E82.23181
G1 X105.281 Y113.767 E82.27158
G1 X104.574 Y113.767 E82.31134
G1 X103.867 Y113.767 E82.35111
G1 X103.160 Y113.767 E82.39099
G1 X102.452 Y113.767 E82.43081
G1 X101.745 Y113.767 E82.47058
G1 X101.038 Y113.767 E82.51035
G1 X100.331 Y113.767 E82.55012
G1 X99.624 Y113.767 E82.58989
G1 X98.917 Y113.767 E82.62966
G1 X98.393 Y113.596 E82.67100
G0 F9000 X98.278 Y109.280
G0 X99.167 Y109.420
G1 F1800 X99.143 Y109.043 E82.71100
G1 X100.039 Y109.231 E82.75096
G1 X100.746 Y109.231 E82.79084
G1 X101.453 Y109.231 E82.83071
G1 X102.160 Y109.231 E82.87059
G1 X102.868 Y109.231 E82.91052
G1 X103.575 Y109.231 E82.95039
G1 X104.282 Y109.231 E82.99027
G1 X104.989 Y109.231 E83.03014
G1 X105.696 Y109.231 E83.07002
G1 X106.403 Y109.231 E83.10989
G1 X107.110 Y109.231 E83.14977
G1 X107.817 Y109.231 E83.18964
G1 X108.524 Y109.231 E83.22952
G1 X109.231 Y109.231 E83.26939
G1 X109.939 Y109.231 E83.30932
G1 X110.646 Y109.231 E83.34920
G1 X111.353 Y109.232 E83.38907
G1 X112.060 Y109.232 E83.42884
G1 X112.767 Y109.232 E83.46861
G1 X113.474 Y109.232 E83.50838
G1 X114.181 Y109.232 E83.54815
G1 X114.888 Y109.232 E83.58792
G1 X115.595 Y109.232 E83.62769
G1 X116.303 Y109.232 E83.66751
G1 X117.010 Y109.232 E83.70739
G1 X117.717 Y109.232 E83.74715
G1 X118.424 Y109.232 E83.78692
G1 X119.131 Y109.232 E83.82669
G1 X119.673 Y109.420 E83.86972
;LAYER:3
G0 F9000 X124.831 Y109.294 Z0.750
;TYPE:WALL-INNER
G1 F4020 X124.957 Y109.294 E83.87917
G1 X124.957 Y113.706 E84.21007
G1 X124.831 Y113.706 E84.21952
G1 X124.831 Y109.294 E84.55042
G0 F9000 X98.169 Y109.294
G1 F4020 X98.169 Y113.706 E84.88132
G1 X98.043 Y113.706 E84.89077
G1 X98.043 Y109.294 E85.22167
G1 X98.169 Y109.294 E85.23112
G0 F9000 X98.669 Y109.671
;TYPE:WALL-OUTER
G1 F2220 X98.669 Y113.329 E85.50547
G1 X124.331 Y113.329 E87.43012
G1 X124.331 Y109.671 E87.70447
G1 X98.669 Y109.671 E89.62912
G0 F9000 X97.543 Y108.794
G1 F2220 X125.457 Y108.794 E91.72267
G1 X125.457 Y114.206 E92.12857
G1 X97.543 Y114.206 E94.22212
G1 X97.543 Y108.794 E94.62802
G0 F9000 X98.393 Y109.141
;TYPE:SKIN
G1 F1740 X98.656 Y109.231 E94.63852
G1 X99.364 Y109.231 E94.67856
G1 X99.907 Y109.042 E94.72168
G0 F9000 X99.907 Y109.144
G0 X124.722 Y109.280
G0 X124.722 Y113.720
G0 X99.614 Y113.679
G0 X99.614 Y113.578
G1 F1740 X99.071 Y113.766 E94.76168
G1 X98.529 Y113.955 E94.80473
G0 F9000 X99.943 Y113.955
G1 F1740 X100.485 Y113.766 E94.84468
G1 X101.193 Y113.766 E94.88461
G1 X101.900 Y113.766 E94.92448
G1 X102.607 Y113.766 E94.96436
G1 X103.314 Y113.766 E95.00423
G1 X104.021 Y113.766 E95.04411
G1 X104.728 Y113.766 E95.08398
G1 X105.435 Y113.766 E95.12386
G1 X106.142 Y113.766 E95.16373
G1 X106.849 Y113.766 E95.20361
G1 X107.557 Y113.766 E95.24354
G1 X108.264 Y113.766 E95.28341
G1 X108.971 Y113.766 E95.32329
G1 X109.678 Y113.766 E95.36316
G1 X110.385 Y113.766 E95.40304
G1 X111.092 Y113.766 E95.44291
G1 X111.799 Y113.766 E95.48279
G1 X112.506 Y113.766 E95.52266
G1 X113.213 Y113.766 E95.56254
G1 X113.921 Y113.766 E95.60247
G1 X114.628 Y113.766 E95.64234
G1 X115.335 Y113.766 E95.68222
G1 X116.042 Y113.766 E95.72209
G1 X116.749 Y113.766 E95.76197
G1 X117.456 Y113.766 E95.80184
G1 X118.163 Y113.766 E95.84172
G1 X118.870 Y113.766 E95.88159
G1 X119.577 Y113.766 E95.92147
G1 X120.284 Y113.766 E95.96134
G1 X120.992 Y113.766 E96.00127
G1 X121.699 Y113.766 E96.04115
G1 X122.406 Y113.766 E96.08102
G1 X123.113 Y113.766 E96.12090
G1 X123.820 Y113.766 E96.16077
G1 X124.363 Y113.578 E96.20387
G0 F9000 X124.363 Y113.679
G0 X98.278 Y113.720
G0 X98.278 Y109.280
G0 X124.272 Y109.220
G0 X124.277 Y109.421
G1 F1740 X124.276 Y109.068 E96.23855
G1 X123.405 Y109.232 E96.27857
G1 X122.698 Y109.232 E96.31844
G1 X121.991 Y109.232 E96.35832
G1 X121.284 Y109.232 E96.39819
G1 X120.577 Y109.232 E96.43807
G1 X119.869 Y109.232 E96.47811
G1 X119.162 Y109.232 E96.51809
G1 X118.455 Y109.232 E96.55807
G1 X117.748 Y109.232 E96.59805
G1 X117.041 Y109.232 E96.63803
G1 X116.334 Y109.232 E96.67790
G1 X115.627 Y109.232 E96.71778
G1 X114.920 Y109.232 E96.75765
G1 X114.213 Y109.232 E96.79753
G1 X113.505 Y109.232 E96.83757
G1 X112.798 Y109.232 E96.87755
G1 X112.091 Y109.232 E96.91753
G1 X111.384 Y109.231 E96.95751
G1 X110.677 Y109.231 E96.99759
G1 X109.970 Y109.231 E97.03768
G1 X109.263 Y109.231 E97.07777
G1 X108.556 Y109.231 E97.11786
G1 X107.849 Y109.231 E97.15794
G1 X107.142 Y109.231 E97.19803
G1 X106.435 Y109.231 E97.23812
G1 X105.727 Y109.231 E97.27815
G1 X105.020 Y109.231 E97.31824
G1 X104.313 Y109.231 E97.35833
G1 X103.606 Y109.231 E97.39841
G1 X102.899 Y109.231 E97.43850
G1 X102.192 Y109.231 E97.47859
G1 X101.485 Y109.231 E97.51868
G1 X100.778 Y109.231 E97.55876
G1 X100.235 Y109.421 E97.60191
;LAYER:4
G0 F9000 X98.169 Y109.294 Z0.900
;TYPE:WALL-INNER
G1 F4800 X98.169 Y113.706 E97.93281
G1 X98.043 Y113.706 E97.94226
G1 X98.043 Y109.294 E98.27316
G1 X98.169 Y109.294 E98.28261
G0 F9000 X124.831 Y109.294
G1 F4800 X124.957 Y109.294 E98.29206
G1 X124.957 Y113.706 E98.62296
G1 X124.831 Y113.706 E98.63241
G1 X124.831 Y109.294 E98.96331
G0 F9000 X124.331 Y109.671
;TYPE:WALL-OUTER
G1 F2400 X98.669 Y109.671 E100.88796
G1 X98.669 Y113.329 E101.16231
G1 X124.331 Y113.329 E103.08696
G1 X124.331 Y109.671 E103.36131
G0 F9000 X125.457 Y108.794
G1 F2400 X125.457 Y114.206 E103.76721
G1 X97.543 Y114.206 E105.86076
G1 X97.543 Y108.794 E106.26666
G1 X125.457 Y108.794 E108.36021
G0 F9000 X124.605 Y109.402
;TYPE:SKIN
G1 F1800 X124.081 Y109.232 E108.39822
G1 X123.374 Y109.232 E108.43799
G1 X122.667 Y109.232 E108.47786
G1 X121.959 Y109.232 E108.51769
G1 X121.252 Y109.232 E108.55746
G1 X120.545 Y109.232 E108.59723
G1 X120.004 Y109.044 E108.64018
G0 F9000 X124.722 Y109.280
G0 X124.722 Y113.720
G0 X120.296 Y113.679
G0 X120.296 Y113.579
G1 F1800 X120.837 Y113.767 E108.68004
G1 X121.544 Y113.767 E108.71981
G1 X122.251 Y113.767 E108.75958
G1 X122.959 Y113.767 E108.79941
G1 X123.666 Y113.767 E108.83928
G1 X124.208 Y113.955 E108.88231
G0 F9000 X119.965 Y113.955
G1 F1800 X119.423 Y113.767 E108.92215
G1 X118.716 Y113.767 E108.96192
G1 X118.009 Y113.767 E109.00169
G1 X117.302 Y113.767 E109.04145
G1 X116.595 Y113.767 E109.08122
G1 X115.887 Y113.767 E109.12105
G1 X115.180 Y113.767 E109.16082
G1 X114.473 Y113.767 E109.20059
G1 X113.766 Y113.767 E109.24035
G1 X113.059 Y113.767 E109.28012
G1 X112.352 Y113.767 E109.31989
G1 X111.645 Y113.767 E109.35966
G1 X110.938 Y113.767 E109.39943
G1 X110.231 Y113.767 E109.43920
G1 X109.524 Y113.767 E109.47907
G1 X108.816 Y113.767 E109.51890
G1 X108.109 Y113.767 E109.55867
G1 X107.402 Y113.767 E109.59844
G1 X106.695 Y113.767 E109.63820
G1 X105.988 Y113.767 E109.67797
G1 X105.281 Y113.767 E109.71774
G1 X104.574 Y113.767 E109.75751
G1 X103.867 Y113.767 E109.79728
G1 X103.160 Y113.767 E109.83715
G1 X102.452 Y113.767 E109.87698
G1 X101.745 Y113.767 E109.91675
G1 X101.038 Y113.767 E109.95652
G1 X100.331 Y113.767 E109.99629
G1 X99.624 Y113.767 E110.03605
G1 X98.917 Y113.767 E110.07582
G1 X98.393 Y113.596 E110.11716
G0 F9000 X98.278 Y109.280
G0 X99.167 Y109.420
G1 F1800 X99.143 Y109.043 E110.15717
G1 X100.039 Y109.231 E110.19713
G1 X100.746 Y109.231 E110.23700
G1 X101.453 Y109.231 E110.27688
G1 X102.160 Y109.231 E110.31675
G1 X102.868 Y109.231 E110.35669
G1 X103.575 Y109.231 E110.39656
G1 X104.282 Y109.231 E110.43643
